!!!!SEGMENT: pl-cz--iii-860--006_volckmer-augustin--litaniae-lauretanae-f-agnus-dei.krn
!!!cenid: 17xx:1142
!!!COM: Volckmer, Augustin
!!!COM-rismID: pe30020656
!!!CDT: 1755-~1820
!!!CNT:
!!!OPR: Litaniae Lauretanae F
!!!OTL: Agnus Dei
!!!OMV: 006
!!!PDT:
!!!AGN: Sacred; Mass
!!!SMS-siglum: PL-CZ
!!!SMS-shelfmark: III-860
!!!SMS-shelfwork: 001-006 M
!!!SMS-variant:
!!!SMS-altvar:
!!!NIFC-rismSourceID: 300001390
!!!NIFC-rismChildID: 300001390
!!!NIFC-islandoraID: pl-cz:41326
!!!URL-pdf-islandora: https://repozytorium.nifc.pl/islandora/object/pl-cz%3A41326/datastream/PDF/view
!!!URL-scan: https://polish.musicsources.pl/pl/lokalizacje/galeria/rekopisy/7018/1 @EN{Scan on Polish Music Sources Website} @PL{Skany w portalu Dziedzictwo Muzyki Polskiej w otwartym dostępie}
!!!IIIF:
!!!ONB-nifc: UWAGA: części Litanii: Kyrie, Sancta Maria, Virgo prudentissima, Salus infirmorum, Regina angelorum, Agnus Dei
!!!AIN: 1 alto 1 bass 2 cor 2 oboe 1 organ 1 soprn 1 tenor 1 viola 2 violn
!!!key: F
**kern	**fba	**dynam	**kern	**dynam	**kern	**dynam	**kern	**dynam	**kern	**text	**dynam	**kern	**text	**dynam	**kern	**text	**dynam	**kern	**text	**dynam	**kern	**dynam	**kern	**dynam	**kern	**dynam	**kern	**dynam
*	*	*	*group4	*	*group4	*	*group4	*	*group3	*	*	*group3	*	*	*group3	*	*	*group3	*	*	*group2	*	*group2	*	*group1	*	*group1	*
*part12	*part12	*part12	*part11	*part11	*part10	*part10	*part9	*part9	*part8	*part8	*part8	*part7	*part7	*part7	*part6	*part6	*part6	*part5	*part5	*part5	*part4	*part4	*part3	*part3	*part2	*part2	*part1	*part1
*staff12	*	*	*staff11	*	*staff10	*	*staff9	*	*staff8	*staff8	*	*staff7	*staff7	*	*staff6	*staff6	*	*staff5	*staff5	*	*staff4	*	*staff3	*	*staff2	*	*staff1	*
*I"Organo.	*	*	*I"Viola obgl per expressivo.	*	*I"Violino Secundo.	*	*I"Violino Primo.	*	*I"Baſso.	*	*	*I"Tenore.	*	*	*I"Alto	*	*	*I"Canto.	*	*	*I"Corno Secundo.	*	*I"Corno Primo	*	*I"Hautbois Secunda.	*	*I"Hautbois Prima.	*
*I'org	*	*	*I'vla	*	*I'vl 2	*	*I'vl 1	*	*I'B	*	*	*I'T	*	*	*I'A	*	*	*I'S	*	*	*I'cor 2	*	*I'cor 1	*	*I'ob 2	*	*I'ob 1	*
*Iorgan	*	*	*Iviola	*	*Ivioln	*	*Ivioln	*	*Ibass	*	*	*Itenor	*	*	*Ialto	*	*	*Isoprn	*	*	*Icor	*	*Icor	*	*Ioboe	*	*Ioboe	*
*ICklav	*	*	*ICstr	*	*ICstr	*	*ICstr	*	*ICvox	*	*	*ICvox	*	*	*ICvox	*	*	*ICvox	*	*	*ICbras	*	*ICbras	*	*ICww	*	*ICww	*
*IGcont	*	*	*	*	*	*	*	*	*IGcoro	*	*	*IGcoro	*	*	*IGcoro	*	*	*IGcoro	*	*	*	*	*	*	*	*	*	*
*clefF4	*	*	*clefC3	*	*clefG2	*	*clefG2	*	*clefF4	*	*	*clefC4	*	*	*clefC3	*	*	*clefC1	*	*	*clefG2	*	*clefG2	*	*clefG2	*	*clefG2	*
*	*	*	*	*	*	*	*	*	*	*	*	*	*	*	*	*	*	*	*	*	*ITrd4c7	*	*ITrd4c7	*	*	*	*	*
*k[b-]	*	*	*k[b-]	*	*k[b-]	*	*k[b-]	*	*k[b-]	*	*	*k[b-]	*	*	*k[b-]	*	*	*k[b-]	*	*	*k[b-]	*	*k[b-]	*	*k[b-]	*	*k[b-]	*
*F:	*	*	*F:	*	*F:	*	*F:	*	*F:	*	*	*F:	*	*	*F:	*	*	*F:	*	*	*F:	*	*F:	*	*F:	*	*F:	*
*M3/4	*	*	*M3/4	*	*M3/4	*	*M3/4	*	*M3/4	*	*	*M3/4	*	*	*M3/4	*	*	*M3/4	*	*	*M3/4	*	*M3/4	*	*M3/4	*	*M3/4	*
*	*	*	*	*	*	*	*all\right	*	*	*	*	*	*	*	*	*	*	*	*	*	*	*	*	*	*	*	*	*
=1	=1	=1	=1	=1	=1	=1	=1	=1	=1	=1	=1	=1	=1	=1	=1	=1	=1	=1	=1	=1	=1	=1	=1	=1	=1	=1	=1	=1
*	*	*	*	*	*	*	*	*	*	*	*	*	*	*	*	*	*	*	*	*	*	*	*	*	*	*	*2\right	*
!	!	!	!	!	!LO:TX:t=P:problem:Tarde czerwonym atramentem	!	!	!	!LO:TX:a:t=16	!	!	!	!	!	!LO:TX:a:t=8	!	!	!LO:TX:a:t=16	!	!	!	!	!LO:TX:a:i:t=in f&colon;	!	!	!	!	!
!LO:TX:a:i:t=Tarde Solo	!	!	!LO:TX:a:i:t=Tarde	!	!LO:TX:a:i:t=Tarde:color=red	!	!LO:TX:a:i:t=Tarde.	!	!LO:TX:a:i:t=Tarde	!	!	!LO:TX:a:i:t=Tarde	!	!	!LO:TX:a:i:t=Tarde	!	!	!LO:TX:a:i:t=Tarde	!	!	!LO:TX:a:i:t=Tarde	!LO:DY:t=piano:color=red	!LO:TX:a:i:t=Tarde	!LO:DY:t=piano:color=red	!LO:TX:a:i:t=Tarde	!LO:DY:t=piano:color=red	!LO:TX:a:i:t=Tarde	!LO:DY:t=piano:color=red
4F\	.	.	8f\L	.	8a/L	.	4cc\	.	0.r	.	.	0.r	.	.	0.r	.	.	0.r	.	.	4f\	p	4a\	p	2a/	p	2cc\	p
.	.	.	8f\	.	8a/	.	.	.	.	.	.	.	.	.	.	.	.	.	.	.	.	.	.	.	.	.	.	.
!	!	!	!	!	!	!	!LO:TX:t=P:problem:mixed beam	!	!	!	!	!	!	!	!	!	!	!	!	!	!	!	!	!	!	!	!	!
4r	.	.	8f\	.	8a/	.	(8cc\L	.	.	.	.	.	.	.	.	.	.	.	.	.	4r	.	4r	.	.	.	.	.
.	.	.	8f\	.	8a/	.	8dd\)	.	.	.	.	.	.	.	.	.	.	.	.	.	.	.	.	.	.	.	.	.
4C/	.	.	8g\	.	8b-/	.	(8e/	.	.	.	.	.	.	.	.	.	.	.	.	.	4g\	.	4b-\	.	4g/	.	4b-\	.
.	.	.	8g\J	.	8b-/J	.	8g/J)	.	.	.	.	.	.	.	.	.	.	.	.	.	.	.	.	.	.	.	.	.
=2	=2	=2	=2	=2	=2	=2	=2	=2	=2	=2	=2	=2	=2	=2	=2	=2	=2	=2	=2	=2	=2	=2	=2	=2	=2	=2	=2	=2
*	*	*	*2\right	*	*2\right	*	*	*	*	*	*	*	*	*	*	*	*	*	*	*	*	*	*	*	*	*	*	*
*	*	*	*tremolo	*	*tremolo	*	*	*	*	*	*	*	*	*	*	*	*	*	*	*	*	*	*	*	*	*	*	*
4FF/	.	.	8a\L	.	8cc\L	.	(<8g/L	.	.	.	.	.	.	.	.	.	.	.	.	.	4f\	.	4a\	.	8g/L	.	8b-/L	.
.	.	.	.	.	.	.	16qqf\LL	.	.	.	.	.	.	.	.	.	.	.	.	.	.	.	.	.	.	.	.	.
.	.	.	.	.	.	.	16qqe\JJ	.	.	.	.	.	.	.	.	.	.	.	.	.	.	.	.	.	.	.	.	.
.	.	.	8a\	.	8cc\	.	8f/J)	.	.	.	.	.	.	.	.	.	.	.	.	.	.	.	.	.	8f/J	.	8a/J	.
4F\	.	.	8a\	.	8cc\	.	4f/	.	.	.	.	.	.	.	.	.	.	.	.	.	4r	.	4r	.	4f/	.	4a/	.
.	.	.	8a\J	.	8cc\	.	.	.	.	.	.	.	.	.	.	.	.	.	.	.	.	.	.	.	.	.	.	.
*	*	*	*Xtremolo	*	*	*	*	*	*	*	*	*	*	*	*	*	*	*	*	*	*	*	*	*	*	*	*	*
4C/	.	.	8e\L	.	8cc\	.	8g/L	.	.	.	.	.	.	.	.	.	.	.	.	.	4c/	.	4g\	.	4e/	.	8g/L	.
.	.	.	8e\J	.	8cc\J	.	8b-/J	.	.	.	.	.	.	.	.	.	.	.	.	.	.	.	.	.	.	.	8b-/J	.
*	*	*	*	*	*Xtremolo	*	*	*	*	*	*	*	*	*	*	*	*	*	*	*	*	*	*	*	*	*	*	*
=3	=3	=3	=3	=3	=3	=3	=3	=3	=3	=3	=3	=3	=3	=3	=3	=3	=3	=3	=3	=3	=3	=3	=3	=3	=3	=3	=3	=3
4FF/ 4F	.	.	8f\L	.	8cc\L	.	(16b-/LL	.	.	.	.	.	.	.	.	.	.	.	.	.	4f\	.	4a\	.	4f/	.	4a/	.
.	.	.	.	.	.	.	16a/	.	.	.	.	.	.	.	.	.	.	.	.	.	.	.	.	.	.	.	.	.
.	.	.	8f\	.	8cc\	.	16g/	.	.	.	.	.	.	.	.	.	.	.	.	.	.	.	.	.	.	.	.	.
.	.	.	.	.	.	.	16f/JJ)	.	.	.	.	.	.	.	.	.	.	.	.	.	.	.	.	.	.	.	.	.
4r	.	.	8a\	.	8dd\|	.	8ff\L|	.	.	.	.	.	.	.	.	.	.	.	.	.	4r	.	4r	.	4r	.	4r	.
.	.	.	8a\	.	8cc\|	.	8ee\|	.	.	.	.	.	.	.	.	.	.	.	.	.	.	.	.	.	.	.	.	.
4BB-/	.	.	8b-\	.	8b-\|	.	8dd\|	.	.	.	.	.	.	.	.	.	.	.	.	.	4r	.	4r	.	8r	.	8r	.
.	.	.	8b-\J	.	8a\J|	.	8cc\J|	.	.	.	.	.	.	.	.	.	.	.	.	.	.	.	.	.	8a/	.	8cc\	.
=4	=4	=4	=4	=4	=4	=4	=4	=4	=4	=4	=4	=4	=4	=4	=4	=4	=4	=4	=4	=4	=4	=4	=4	=4	=4	=4	=4	=4
!	!	!	!LO:TX:t=P:problem:mixed beam	!	!	!	!	!	!	!	!	!	!	!	!	!	!	!	!	!	!	!	!	!	!	!	!	!
4C/	.	.	8cc\L	.	4a/	.	4cc\	.	.	.	.	.	.	.	.	.	.	.	.	.	2c/	.	4a\	.	4a/	.	4cc\	.
.	.	.	8cc\	.	.	.	.	.	.	.	.	.	.	.	.	.	.	.	.	.	.	.	.	.	.	.	.	.
.	.	.	.	.	16qqa/	.	16qqcc/	.	.	.	.	.	.	.	.	.	.	.	.	.	.	.	.	.	.	.	.	.
4CC/	.	.	8c/	.	(8g/L	.	(8b-\L	.	.	.	.	.	.	.	.	.	.	.	.	.	.	.	4g\	.	4g/	.	4b-T\	.
.	.	.	8c/J	.	16f/L	.	16a\L	.	.	.	.	.	.	.	.	.	.	.	.	.	.	.	.	.	.	.	.	.
.	.	.	.	.	16g/JJ)	.	16b-\JJ)	.	.	.	.	.	.	.	.	.	.	.	.	.	.	.	.	.	.	.	.	.
4FF/	.	.	4c/	.	4f/	.	4a\	.	.	.	.	.	.	.	.	.	.	.	.	.	4A/	.	4f\	.	4f/	.	4a\	.
=5	=5	=5	=5	=5	=5	=5	=5	=5	=5	=5	=5	=5	=5	=5	=5	=5	=5	=5	=5	=5	=5	=5	=5	=5	=5	=5	=5	=5
*	*	*	*tremolo	*	*tremolo	*	*	*	*	*	*	*	*	*	*	*	*	*	*	*	*	*	*	*	*	*	*	*
!	!	!	!	!	!	!	!	!	!	!	!	!	!	!	!	!	!	!	!	!	!LO:TX:a:t=2	!	!LO:TX:a:t=2	!	!	!	!	!
4BB-/	.	.	8B-/L	.	8f/L	.	(4dd\	.	0.r	.	.	0.r	.	.	0.r	.	.	0.r	.	.	1.r	.	1.r	.	2.b-/	.	2.dd\	.
.	.	.	8B-/	.	8f/	.	.	.	.	.	.	.	.	.	.	.	.	.	.	.	.	.	.	.	.	.	.	.
4r	.	.	8B-/	.	8f/	.	4b-\)	.	.	.	.	.	.	.	.	.	.	.	.	.	.	.	.	.	.	.	.	.
.	.	.	8B-/	.	8f/	.	.	.	.	.	.	.	.	.	.	.	.	.	.	.	.	.	.	.	.	.	.	.
.	.	.	.	.	.	.	16qqee/LL	.	.	.	.	.	.	.	.	.	.	.	.	.	.	.	.	.	.	.	.	.
.	.	.	.	.	.	.	16qqgg/JJ	.	.	.	.	.	.	.	.	.	.	.	.	.	.	.	.	.	.	.	.	.
4BB-/	.	.	8B-/	.	8f/	.	4ff\|	.	.	.	.	.	.	.	.	.	.	.	.	.	.	.	.	.	.	.	.	.
.	.	.	8B-/J	.	8f/J	.	.	.	.	.	.	.	.	.	.	.	.	.	.	.	.	.	.	.	.	.	.	.
=6	=6	=6	=6	=6	=6	=6	=6	=6	=6	=6	=6	=6	=6	=6	=6	=6	=6	=6	=6	=6	=6	=6	=6	=6	=6	=6	=6	=6
4AA/	.	.	8A/L	.	8f/L	.	(4cc\	.	.	.	.	.	.	.	.	.	.	.	.	.	.	.	.	.	2.a/	.	2.cc\	.
.	.	.	8A/	.	8f/	.	.	.	.	.	.	.	.	.	.	.	.	.	.	.	.	.	.	.	.	.	.	.
4r	.	.	8A/	.	8f/	.	4a\)	.	.	.	.	.	.	.	.	.	.	.	.	.	.	.	.	.	.	.	.	.
.	.	.	8A/	.	8f/	.	.	.	.	.	.	.	.	.	.	.	.	.	.	.	.	.	.	.	.	.	.	.
.	.	.	.	.	.	.	16qqee/LL	.	.	.	.	.	.	.	.	.	.	.	.	.	.	.	.	.	.	.	.	.
.	.	.	.	.	.	.	16qqgg/JJ	.	.	.	.	.	.	.	.	.	.	.	.	.	.	.	.	.	.	.	.	.
4AA/	.	.	8A/	.	8f/	.	4ff\|	.	.	.	.	.	.	.	.	.	.	.	.	.	.	.	.	.	.	.	.	.
.	.	.	8A/J	.	8f/J	.	.	.	.	.	.	.	.	.	.	.	.	.	.	.	.	.	.	.	.	.	.	.
=7	=7	=7	=7	=7	=7	=7	=7	=7	=7	=7	=7	=7	=7	=7	=7	=7	=7	=7	=7	=7	=7	=7	=7	=7	=7	=7	=7	=7
*	*	*	*	*	*	*	*	*	*	*	*	*	*	*	*	*	*	*	*	*	*	*	*2\right	*	*	*	*	*
4GG/	.	.	8G/L	.	8e/L	.	(16cc\LL	.	.	.	.	.	.	.	.	.	.	.	.	.	2c/	.	2g\	.	4r	.	4r	.
.	.	.	.	.	.	.	16b-\	.	.	.	.	.	.	.	.	.	.	.	.	.	.	.	.	.	.	.	.	.
.	.	.	8G/	.	8e/	.	16a\	.	.	.	.	.	.	.	.	.	.	.	.	.	.	.	.	.	.	.	.	.
.	.	.	.	.	.	.	16b-\JJ)	.	.	.	.	.	.	.	.	.	.	.	.	.	.	.	.	.	.	.	.	.
4EE/	.	.	8G/	.	8e/	.	4b-\	.	.	.	.	.	.	.	.	.	.	.	.	.	.	.	.	.	4g/	.	4b-/	.
.	.	.	8G/J	.	8e/J	.	.	.	.	.	.	.	.	.	.	.	.	.	.	.	.	.	.	.	.	.	.	.
*	*	*	*Xtremolo	*	*Xtremolo	*	*	*	*	*	*	*	*	*	*	*	*	*	*	*	*	*	*	*	*	*	*	*
4FF/	.	.	8c/L	.	8f/L	.	4a/	.	.	.	.	.	.	.	.	.	.	.	.	.	4f\	.	4a\	.	4f/	.	4a/	.
.	.	.	8c/J	.	8f/J	.	.	.	.	.	.	.	.	.	.	.	.	.	.	.	.	.	.	.	.	.	.	.
=8	=8	=8	=8	=8	=8	=8	=8	=8	=8	=8	=8	=8	=8	=8	=8	=8	=8	=8	=8	=8	=8	=8	=8	=8	=8	=8	=8	=8
!	!	!	!	!	!	!	!LO:TX:a:t=t&colon;	!	!	!	!	!	!	!	!	!	!	!	!	!	!	!	!	!	!	!	!	!
4C/	.	.	4c/	.	8.f/L	.	8.a/L	.	.	.	.	.	.	.	.	.	.	.	.	.	4f\	.	4a\	.	4f/	.	8.a/L	.
.	.	.	.	.	(32g/LL	.	(32b-/LL	.	.	.	.	.	.	.	.	.	.	.	.	.	.	.	.	.	.	.	32g/LL	.
.	.	.	.	.	32a/JJJ)	.	32cc/JJJ)	.	.	.	.	.	.	.	.	.	.	.	.	.	.	.	.	.	.	.	32a/JJJ	.
8CC/L	.	.	4c/	.	4e/	.	4g/	.	.	.	.	.	.	.	.	.	.	.	.	.	4c/	.	4g\	.	4e/	.	4g/	.
8BB-/	.	.	.	.	.	.	.	.	.	.	.	.	.	.	.	.	.	.	.	.	.	.	.	.	.	.	.	.
8AA/	.	.	4r	.	4r	.	4r	.	.	.	.	.	.	.	.	.	.	.	.	.	4r	.	4r	.	4r	.	4r	.
8GG/J	.	.	.	.	.	.	.	.	.	.	.	.	.	.	.	.	.	.	.	.	.	.	.	.	.	.	.	.
!	!	!	!	!	!LO:LB:g=original	!	!LO:LB:g=original	!	!	!	!	!	!	!	!	!	!	!	!	!	!	!	!	!	!	!	!	!
=9	=9	=9	=9	=9	=9	=9	=9	=9	=9	=9	=9	=9	=9	=9	=9	=9	=9	=9	=9	=9	=9	=9	=9	=9	=9	=9	=9	=9
!	!	!	!	!LO:DY:color=red:t=p.	!	!LO:DY:color=red	!	!LO:DY:color=red:t=piano	!	!	!	!	!	!	!LO:TX:b:i:t=Solo:color=red	!	!	!	!	!	!LO:TX:a:t=8	!	!	!	!LO:TX:a:t=8	!	!LO:TX:a:t=8	!
4FF/	.	.	8f\L	p	8a/L	p	4cc\	p	0.r	.	.	0.r	.	.	(4.cc\	Ag-	.	0.r	.	.	0.r	.	0.r	.	0.r	.	0.r	.
!	!	!	!LO:TX:b:i:t=vox:color=red	!	!LO:TX:b:i:t=vox:color=red	!	!	!	!	!	!	!	!	!	!	!	!	!	!	!	!	!	!	!	!	!	!	!
.	.	.	8f\	.	8a/	.	.	.	.	.	.	.	.	.	.	.	.	.	.	.	.	.	.	.	.	.	.	.
!	!	!	!	!	!	!	!LO:TX:b:i:t=vox:color=red	!	!	!	!	!	!	!	!	!	!	!	!	!	!	!	!	!	!	!	!	!
4r	.	.	8f\	.	8a/	.	(8cc\L	.	.	.	.	.	.	.	.	.	.	.	.	.	.	.	.	.	.	.	.	.
.	.	.	8f\	.	8a/	.	8dd\J)	.	.	.	.	.	.	.	8dd\)	.	.	.	.	.	.	.	.	.	.	.	.	.
!	!	!LO:DY:t=pia vox	!	!	!	!	!	!	!	!	!	!	!	!	!	!	!	!	!	!	!	!	!	!	!	!	!	!
4C/	.	p	8g\	.	8b-/	.	8e/L	.	.	.	.	.	.	.	8e\L	-nus	.	.	.	.	.	.	.	.	.	.	.	.
.	.	.	8g\J	.	8b-/J	.	8g/J	.	.	.	.	.	.	.	8g\J	.	.	.	.	.	.	.	.	.	.	.	.	.
!	!	!	!LO:LB:g=original	!	!	!	!	!	!	!	!	!	!	!	!	!	!	!	!	!	!	!	!	!	!	!	!	!
=10	=10	=10	=10	=10	=10	=10	=10	=10	=10	=10	=10	=10	=10	=10	=10	=10	=10	=10	=10	=10	=10	=10	=10	=10	=10	=10	=10	=10
*	*	*	*	*	*tremolo	*	*	*	*	*	*	*	*	*	*	*	*	*	*	*	*	*	*	*	*	*	*	*
4FF/	.	.	8a\L	.	8cc\L	.	8g/L	.	.	.	.	.	.	.	16g\LL	De-	.	.	.	.	.	.	.	.	.	.	.	.
.	.	.	.	.	.	.	.	.	.	.	.	.	.	.	16f\	.	.	.	.	.	.	.	.	.	.	.	.	.
.	.	.	.	.	.	.	16qqf\LL	.	.	.	.	.	.	.	.	.	.	.	.	.	.	.	.	.	.	.	.	.
.	.	.	.	.	.	.	16qqe\JJ	.	.	.	.	.	.	.	.	.	.	.	.	.	.	.	.	.	.	.	.	.
.	.	.	8a\	.	8cc\	.	8f/J	.	.	.	.	.	.	.	16e\	.	.	.	.	.	.	.	.	.	.	.	.	.
.	.	.	.	.	.	.	.	.	.	.	.	.	.	.	16f\JJ	.	.	.	.	.	.	.	.	.	.	.	.	.
4F\	.	.	8a\	.	8cc\	.	4f/	.	.	.	.	.	.	.	4f\	-i	.	.	.	.	.	.	.	.	.	.	.	.
.	.	.	8a\J	.	8cc\	.	.	.	.	.	.	.	.	.	.	.	.	.	.	.	.	.	.	.	.	.	.	.
4C/	.	.	8e\L	.	8cc\	.	8g/L	.	.	.	.	.	.	.	8g\L	qui	.	.	.	.	.	.	.	.	.	.	.	.
.	.	.	8e\J	.	8cc\J	.	8b-/J	.	.	.	.	.	.	.	8b-\J	.	.	.	.	.	.	.	.	.	.	.	.	.
*	*	*	*	*	*Xtremolo	*	*	*	*	*	*	*	*	*	*	*	*	*	*	*	*	*	*	*	*	*	*	*
=11	=11	=11	=11	=11	=11	=11	=11	=11	=11	=11	=11	=11	=11	=11	=11	=11	=11	=11	=11	=11	=11	=11	=11	=11	=11	=11	=11	=11
4F\	.	.	8f\L	.	8cc\L	.	(16b-/LL	.	.	.	.	.	.	.	16b-\LL	tol-	.	.	.	.	.	.	.	.	.	.	.	.
.	.	.	.	.	.	.	16a/	.	.	.	.	.	.	.	16a\	.	.	.	.	.	.	.	.	.	.	.	.	.
.	.	.	8f\	.	8cc\J	.	16g/	.	.	.	.	.	.	.	16g\	.	.	.	.	.	.	.	.	.	.	.	.	.
.	.	.	.	.	.	.	16f/JJ)	.	.	.	.	.	.	.	16f\JJ	.	.	.	.	.	.	.	.	.	.	.	.	.
4r	.	.	8a\	.	8dd'\L	.	8ff\L|	.	.	.	.	.	.	.	8ff\	-lis	.	.	.	.	.	.	.	.	.	.	.	.
.	.	.	8a\	.	8cc'\	.	8ee\|	.	.	.	.	.	.	.	8ee\	pec-	.	.	.	.	.	.	.	.	.	.	.	.
4BB-/	.	.	8b-\	.	8b-'\	.	8dd\|	.	.	.	.	.	.	.	8dd\	-ca-	.	.	.	.	.	.	.	.	.	.	.	.
.	.	.	8b-\J	.	8a'\J	.	8cc\J|	.	.	.	.	.	.	.	8cc\	-ta	.	.	.	.	.	.	.	.	.	.	.	.
=12	=12	=12	=12	=12	=12	=12	=12	=12	=12	=12	=12	=12	=12	=12	=12	=12	=12	=12	=12	=12	=12	=12	=12	=12	=12	=12	=12	=12
!	!	!	!LO:TX:t=P:problem:mixed beam	!	!	!	!	!	!	!	!	!	!	!	!	!	!	!	!	!	!	!	!	!	!	!	!	!
4C/	.	.	8cc\L	.	4a/	.	4cc\	.	.	.	.	.	.	.	4cc\	mun-	.	.	.	.	.	.	.	.	.	.	.	.
.	.	.	8cc\	.	.	.	.	.	.	.	.	.	.	.	.	.	.	.	.	.	.	.	.	.	.	.	.	.
.	.	.	.	.	16qqa/	.	16qqcc/	.	.	.	.	.	.	.	16qqcc/	.	.	.	.	.	.	.	.	.	.	.	.	.
4CC/	.	.	8c/	.	(8.g/L	.	8b-\L	.	.	.	.	.	.	.	8b-\L	.	.	.	.	.	.	.	.	.	.	.	.	.
.	.	.	8c/J	.	.	.	16a\L	.	.	.	.	.	.	.	16a\L	.	.	.	.	.	.	.	.	.	.	.	.	.
.	.	.	.	.	32f/LL	.	16b-\JJ	.	.	.	.	.	.	.	16b-\JJ	.	.	.	.	.	.	.	.	.	.	.	.	.
.	.	.	.	.	32g/JJJ)	.	.	.	.	.	.	.	.	.	.	.	.	.	.	.	.	.	.	.	.	.	.	.
4FF/	.	.	4c/	.	4f/	.	4a\	.	.	.	.	.	.	.	4a\	-di	.	.	.	.	.	.	.	.	.	.	.	.
=13	=13	=13	=13	=13	=13	=13	=13	=13	=13	=13	=13	=13	=13	=13	=13	=13	=13	=13	=13	=13	=13	=13	=13	=13	=13	=13	=13	=13
*tremolo	*	*	*tremolo	*	*tremolo	*	*	*	*	*	*	*	*	*	*	*	*	*	*	*	*	*	*	*	*	*	*	*
8BB-/L	.	.	8B-/L	.	8f/L	.	(4dd\	.	0.r	.	.	0.r	.	.	4dd\	qui	.	0.r	.	.	0.r	.	0.r	.	0.r	.	0.r	.
8BB-/	.	.	8B-/	.	8f/	.	.	.	.	.	.	.	.	.	.	.	.	.	.	.	.	.	.	.	.	.	.	.
8BB-/	.	.	8B-/	.	8f/	.	4b-\)	.	.	.	.	.	.	.	4b-\	tol-	.	.	.	.	.	.	.	.	.	.	.	.
8BB-/	.	.	8B-/	.	8f/	.	.	.	.	.	.	.	.	.	.	.	.	.	.	.	.	.	.	.	.	.	.	.
.	.	.	.	.	.	.	16qqee/LL	.	.	.	.	.	.	.	.	.	.	.	.	.	.	.	.	.	.	.	.	.
.	.	.	.	.	.	.	16qqgg/JJ	.	.	.	.	.	.	.	.	.	.	.	.	.	.	.	.	.	.	.	.	.
8BB-/	.	.	8B-/	.	8f/	.	4ff\	.	.	.	.	.	.	.	4f\	-lis	.	.	.	.	.	.	.	.	.	.	.	.
8BB-/J	.	.	8B-/J	.	8f/J	.	.	.	.	.	.	.	.	.	.	.	.	.	.	.	.	.	.	.	.	.	.	.
*Xtremolo	*	*	*	*	*	*	*	*	*	*	*	*	*	*	*	*	*	*	*	*	*	*	*	*	*	*	*	*
!	!	!	!	!	!	!	!	!	!	!	!	!	!	!	!LO:LB:g=original	!	!	!	!	!	!	!	!	!	!	!	!	!
=14	=14	=14	=14	=14	=14	=14	=14	=14	=14	=14	=14	=14	=14	=14	=14	=14	=14	=14	=14	=14	=14	=14	=14	=14	=14	=14	=14	=14
8AA/L	.	.	8A/L	.	8f/L	.	(4cc\	.	.	.	.	.	.	.	4cc\	Pec-	.	.	.	.	.	.	.	.	.	.	.	.
8AA/	.	.	8A/	.	8f/	.	.	.	.	.	.	.	.	.	.	.	.	.	.	.	.	.	.	.	.	.	.	.
8FF/	.	.	8A/	.	8f/	.	4a\)	.	.	.	.	.	.	.	4a\	-ca-	.	.	.	.	.	.	.	.	.	.	.	.
8FF/	.	.	8A/	.	8f/	.	.	.	.	.	.	.	.	.	.	.	.	.	.	.	.	.	.	.	.	.	.	.
.	.	.	.	.	.	.	16qqee/LL	.	.	.	.	.	.	.	.	.	.	.	.	.	.	.	.	.	.	.	.	.
.	.	.	.	.	.	.	16qqgg/JJ	.	.	.	.	.	.	.	.	.	.	.	.	.	.	.	.	.	.	.	.	.
8AA/	.	.	8A/	.	8f/	.	4ff\|	.	.	.	.	.	.	.	4f\	-ta	.	.	.	.	.	.	.	.	.	.	.	.
8AA/J	.	.	8A/J	.	8f/J	.	.	.	.	.	.	.	.	.	.	.	.	.	.	.	.	.	.	.	.	.	.	.
=15	=15	=15	=15	=15	=15	=15	=15	=15	=15	=15	=15	=15	=15	=15	=15	=15	=15	=15	=15	=15	=15	=15	=15	=15	=15	=15	=15	=15
4GG/	.	.	8G/L	.	8e/L	.	(16cc\LL	.	.	.	.	.	.	.	16cc\LL	Pec-	.	.	.	.	.	.	.	.	.	.	.	.
.	.	.	.	.	.	.	16b-\	.	.	.	.	.	.	.	16b-\	.	.	.	.	.	.	.	.	.	.	.	.	.
.	.	.	8G/	.	8e/	.	16a\	.	.	.	.	.	.	.	16a\	.	.	.	.	.	.	.	.	.	.	.	.	.
.	.	.	.	.	.	.	16b-\JJ)	.	.	.	.	.	.	.	16b-\JJ	.	.	.	.	.	.	.	.	.	.	.	.	.
4E\	.	.	8G/	.	8e/	.	4b-/	.	.	.	.	.	.	.	4b-\	-ca-	.	.	.	.	.	.	.	.	.	.	.	.
.	.	.	8G/J	.	8e/J	.	.	.	.	.	.	.	.	.	.	.	.	.	.	.	.	.	.	.	.	.	.	.
*	*	*	*Xtremolo	*	*Xtremolo	*	*	*	*	*	*	*	*	*	*	*	*	*	*	*	*	*	*	*	*	*	*	*
4F\	.	.	8c/L	.	8f/L	.	4a/	.	.	.	.	.	.	.	4a\	-ta	.	.	.	.	.	.	.	.	.	.	.	.
.	.	.	8c/J	.	8f/J	.	.	.	.	.	.	.	.	.	.	.	.	.	.	.	.	.	.	.	.	.	.	.
=16	=16	=16	=16	=16	=16	=16	=16	=16	=16	=16	=16	=16	=16	=16	=16	=16	=16	=16	=16	=16	=16	=16	=16	=16	=16	=16	=16	=16
!	!	!	!	!	!	!	!LO:TX:a:t=t&colon;	!	!	!	!	!	!	!	!	!	!	!	!	!	!	!	!	!	!	!	!	!
4C/	.	.	4c/	.	(8.fT/L	.	(8.a/L	.	.	.	.	.	.	.	8.at\L	mun-	.	.	.	.	.	.	.	.	.	.	.	.
.	.	.	.	.	32e/LL	.	32g/LL	.	.	.	.	.	.	.	32g\LL	.	.	.	.	.	.	.	.	.	.	.	.	.
.	.	.	.	.	32f/JJJ)	.	32a/JJJ)	.	.	.	.	.	.	.	32a\JJJ	.	.	.	.	.	.	.	.	.	.	.	.	.
4CC/	.	.	4c/	.	4e/	.	4g/	.	.	.	.	.	.	.	4g\	-di	.	.	.	.	.	.	.	.	.	.	.	.
4r	.	.	4r	.	4r	.	4r	.	.	.	.	.	.	.	4r	.	.	.	.	.	.	.	.	.	.	.	.	.
=17	=17	=17	=17	=17	=17	=17	=17	=17	=17	=17	=17	=17	=17	=17	=17	=17	=17	=17	=17	=17	=17	=17	=17	=17	=17	=17	=17	=17
*	*	*	*	*	*	*	*	*	*	*	*	*	*	*	*2\right	*	*	*2\right	*	*	*	*	*	*	*	*	*	*
!LO:TX:b:i:t=Tutti:color=red	!	!	!	!LO:DY:color=red	!	!	!	!	!	!	!LO:DY:a:color=red	!	!	!LO:DY:a:color=red	!	!	!LO:DY:a:color=red	!	!	!LO:DY:b:color=red	!	!LO:DY:a:color=red	!	!LO:DY:color=red	!	!LO:DY:color=red:t=f&colon;	!	!LO:DY:color=red:t=f&colon;
4C/	.	.	8g\	f	8r	.	8r	.	(4C/	Par-	f	2G/	Par-	f	2e\	Par-	f	2cc\	Par-	f	4C/	f	4c/	f	2g/	f	(2ee\	f
!	!	!	!	!	!	!LO:DY:color=red	!	!LO:DY:color=red	!	!	!	!	!	!	!	!	!	!	!	!	!	!	!	!	!	!	!	!
.	.	.	4g\	.	8g/L|	f	8ee\L|	f	.	.	.	.	.	.	.	.	.	.	.	.	.	.	.	.	.	.	.	.
4r	.	.	.	.	(8g/	.	(8ee\	.	4E\)	.	.	.	.	.	.	.	.	.	.	.	4r	.	4r	.	.	.	.	.
.	.	.	4g\	.	8e/)	.	8cc\)	.	.	.	.	.	.	.	.	.	.	.	.	.	.	.	.	.	.	.	.	.
4C/	.	.	.	.	(8g/	.	(8ee\	.	4C/	-ce	.	4G/	-ce	.	4e\	-ce	.	4cc\	-ce	.	4C/	.	4c/	.	4e/	.	4cc\)	.
.	.	.	8g\	.	8e/J)	.	8cc\J)	.	.	.	.	.	.	.	.	.	.	.	.	.	.	.	.	.	.	.	.	.
!	!	!	!	!	!LO:LB:g=original	!	!LO:LB:g=original	!	!	!	!	!	!	!	!	!	!	!	!	!	!	!	!	!	!	!	!LO:LB:g=original	!
=18	=18	=18	=18	=18	=18	=18	=18	=18	=18	=18	=18	=18	=18	=18	=18	=18	=18	=18	=18	=18	=18	=18	=18	=18	=18	=18	=18	=18
*	*	*	*	*	*	*	*	*	*	*	*	*	*ij	*	*	*ij	*	*	*	*	*	*	*	*	*	*	*	*
4G\	.	.	4g\	.	(8e/L	.	8cc\L	.	4G\	no-	.	4G/	Par-	.	8e\L	Par-	.	8cc\L	par-	.	4g\	.	4g\	.	8e/L	.	(8cc\L	.
.	.	.	.	.	8d/J)	.	8bn\J	.	.	.	.	.	.	.	8d\J	.	.	8bn\J	.	.	.	.	.	.	8d/J	.	8bn\J)	.
4GG/	.	.	4g\	.	8d/L	.	8b\L|	.	4GG/	-bis	.	4G/	-ce	.	4d\	-ce	.	4b\	-ce	.	4g\	.	4g\	.	4d/	.	4b\	.
*	*	*	*	*	*	*	*	*	*	*	*	*	*Xij	*	*	*Xij	*	*	*	*	*	*	*	*	*	*	*	*
.	.	.	.	.	8G/|	.	8g\|	.	.	.	.	.	.	.	.	.	.	.	.	.	.	.	.	.	.	.	.	.
4r	.	.	4r	.	8Bn/|	.	8b\|	.	4r	.	.	4r	.	.	4r	.	.	4r	.	.	4r	.	4r	.	4r	.	4r	.
.	.	.	.	.	8c/J|	.	8cc\J|	.	.	.	.	.	.	.	.	.	.	.	.	.	.	.	.	.	.	.	.	.
!	!	!	!	!	!	!	!	!	!	!	!	!	!	!	!	!	!	!	!	!	!	!	!	!	!LO:LB:g=original	!	!	!
=19	=19	=19	=19	=19	=19	=19	=19	=19	=19	=19	=19	=19	=19	=19	=19	=19	=19	=19	=19	=19	=19	=19	=19	=19	=19	=19	=19	=19
*	*	*	*	*	*	*	*	*	*	*	*	*2\right	*	*	*	*	*	*	*	*	*	*	*	*	*	*	*	*
!	!	!	!LO:SIC:v:s=8Bn/	!	!	!	!	!	!	!	!	!	!	!	!	!	!	!	!	!	!	!	!	!	!	!	!	!
4GG/	.	.	8B-/	.	8r	.	8r	.	(4G\	no-	.	2Bn\	no-	.	2f\	no-	.	2dd\	no-	.	4g\	.	4g\	.	2g/	.	(2ff\	.
!	!	!	!LO:SIC:v:s=4B/	!	!	!	!	!	!	!	!	!	!	!	!	!	!	!	!	!	!	!	!	!	!	!	!	!
.	.	.	4B-/	.	8f/L|	.	8dd\L|	.	.	.	.	.	.	.	.	.	.	.	.	.	.	.	.	.	.	.	.	.
4BBn/	.	.	.	.	(8f/	.	(8dd\	.	4Bn\)	.	.	.	.	.	.	.	.	.	.	.	4r	.	4r	.	.	.	.	.
!	!	!	!LO:SIC:v:s=4B/	!	!	!	!	!	!	!	!	!	!	!	!	!	!	!	!	!	!	!	!	!	!	!	!	!
.	.	.	4B-/	.	8d/)	.	8bn\)	.	.	.	.	.	.	.	.	.	.	.	.	.	.	.	.	.	.	.	.	.
4GG/	.	.	.	.	(8a/	.	(8ff\	.	4G\	-bis	.	4B\	-bis	.	4f\	-bis	.	4dd\	-bis	.	4g\	.	4g\	.	4f/	.	4dd\)	.
!	!	!	!LO:SIC:v:s=8B/	!	!	!	!	!	!	!	!	!	!	!	!	!	!	!	!	!	!	!	!	!	!	!	!	!
.	.	.	8B-/	.	8f/J)	.	8dd\J)	.	.	.	.	.	.	.	.	.	.	.	.	.	.	.	.	.	.	.	.	.
!	!	!	!LO:LB:g=original	!	!	!	!	!	!	!	!	!	!	!	!	!	!	!	!	!	!	!	!	!	!	!	!	!
=20	=20	=20	=20	=20	=20	=20	=20	=20	=20	=20	=20	=20	=20	=20	=20	=20	=20	=20	=20	=20	=20	=20	=20	=20	=20	=20	=20	=20
4C/	.	.	4G/	.	8f/L	.	(8dd\L	.	8c\	Do-	.	8G/	Do-	.	8f\	Do-	.	8dd\	Do-	.	4g\	.	4g\	.	8f/L	.	8dd\L	.
.	.	.	.	.	8e/J	.	8cc\J)	.	8C/	-mi-	.	8G/	-mi-	.	8e\	-mi-	.	8cc\	-mi-	.	.	.	.	.	8e/J	.	8cc\J	.
4CC/	.	.	4g\	.	8e/L	.	(8cc\L	.	4C/	-ne	.	4G/	-ne	.	4e\	-ne	.	4cc\	-ne	.	4g\	.	4g\	.	4e/	.	4cc\	.
.	.	.	.	.	8G/	.	8g\	.	.	.	.	.	.	.	.	.	.	.	.	.	.	.	.	.	.	.	.	.
4r	.	.	4r	.	8e/	.	8cc\	.	4r	.	.	4r	.	.	4r	.	.	4r	.	.	4r	.	4r	.	4r	.	4r	.
.	.	.	.	.	8f/J	.	8dd\J)	.	.	.	.	.	.	.	.	.	.	.	.	.	.	.	.	.	.	.	.	.
!	!	!	!	!	!	!	!	!	!	!	!	!	!	!	!	!	!	!	!	!	!LO:LB:g=original	!	!	!	!	!	!	!
=21	=21	=21	=21	=21	=21	=21	=21	=21	=21	=21	=21	=21	=21	=21	=21	=21	=21	=21	=21	=21	=21	=21	=21	=21	=21	=21	=21	=21
4C/	.	.	2g\	.	8r	.	8r	.	2C/	Par-	.	2G/	par-	.	2g\	Par-	.	2ee\	Par-	.	4c/	.	4g\	.	2.g/	.	2.ee\	.
.	.	.	.	.	8g/L|	.	8ee\L|	.	.	.	.	.	.	.	.	.	.	.	.	.	.	.	.	.	.	.	.	.
4r	.	.	.	.	(8g/	.	(8ee\	.	.	.	.	.	.	.	.	.	.	.	.	.	4r	.	4r	.	.	.	.	.
.	.	.	.	.	8e/)	.	8cc\)	.	.	.	.	.	.	.	.	.	.	.	.	.	.	.	.	.	.	.	.	.
!	!	!	!	!	!	!	!	!	!	!	!	!	!	!	!	!	!	!	!	!	!	!	!LO:LB:g=original	!	!	!	!	!
4C/	.	.	4g\	.	(8g/	.	(8ee\	.	4C/	-ce	.	4G/	-ce	.	4e\	-ce	.	4cc\	-ce	.	4c/	.	4g\	.	.	.	.	.
.	.	.	.	.	8e/J)	.	8cc\J)	.	.	.	.	.	.	.	.	.	.	.	.	.	.	.	.	.	.	.	.	.
=22	=22	=22	=22	=22	=22	=22	=22	=22	=22	=22	=22	=22	=22	=22	=22	=22	=22	=22	=22	=22	=22	=22	=22	=22	=22	=22	=22	=22
*	*	*	*	*	*	*	*	*	*2\right	*	*	*	*	*	*	*	*	*	*	*	*	*	*	*	*	*	*	*
4F\	.	.	2c\	.	8r	.	8r	.	2F\	no-	.	2c\	no-	.	2a\	no-	.	2ff\	no-	.	4f\	.	4a\	.	2.a/	.	2.ff\	.
.	.	.	.	.	8a\L|	.	8ff\L|	.	.	.	.	.	.	.	.	.	.	.	.	.	.	.	.	.	.	.	.	.
4r	.	.	.	.	(8cc\	.	(8aa\	.	.	.	.	.	.	.	.	.	.	.	.	.	4r	.	4r	.	.	.	.	.
.	.	.	.	.	8a\)	.	8ff\)	.	.	.	.	.	.	.	.	.	.	.	.	.	.	.	.	.	.	.	.	.
4D\	.	.	4c\	.	(8cc\	.	(8aa\	.	4D\	-bis	.	4A\	-bis	.	4f\	-bis	.	4dd\	-bis	.	4f\	.	4a\	.	.	.	.	.
.	.	.	.	.	8a\J)	.	8ff\J)	.	.	.	.	.	.	.	.	.	.	.	.	.	.	.	.	.	.	.	.	.
=23	=23	=23	=23	=23	=23	=23	=23	=23	=23	=23	=23	=23	=23	=23	=23	=23	=23	=23	=23	=23	=23	=23	=23	=23	=23	=23	=23	=23
*2\right	*	*	*	*	*	*	*	*	*	*	*	*	*	*	*	*	*	*	*	*	*	*	*	*	*	*	*	*
*tremolo	*	*	*	*	*	*	*	*	*	*	*	*	*	*	*	*	*	*	*	*	*2\right	*	*	*	*	*	*	*
!	!	!	!	!	!	!	!	!	!	!	!	!	!	!	!	!	!	!LO:SIC:v:s=8ee\L	!	!	!	!	!	!	!	!	!	!
8G\L	.	.	8g\L	.	8g/L	.	8ee\L	.	2G\	Do-	.	8G/L	Do-	.	8g\L	Do-	.	8dd\L	Do-	.	2g\	.	2g\	.	8g/L	.	8ee\L	.
8G\	.	.	8a\J	.	16a/L	.	(16ff\L	.	.	.	.	8A/J	.	.	16a\L	.	.	16ff\L	.	.	.	.	.	.	8f/J	.	8dd\J	.
.	.	.	.	.	16f/JJ	.	16dd\JJ)	.	.	.	.	.	.	.	16f\JJ	.	.	16dd\JJ	.	.	.	.	.	.	.	.	.	.
.	.	.	.	.	.	.	8qqdd/	.	.	.	.	.	.	.	.	.	.	.	.	.	.	.	.	.	.	.	.	.
!	!	!	!	!	!	!	!	!	!	!	!	!	!	!	!LO:LB:g=original	!	!	!	!	!	!	!	!	!	!	!	!	!
8G\	.	.	4g\	.	4e/	.	4cc\	.	.	.	.	4G/	.	.	4e\	.	.	4cc\	.	.	.	.	.	.	4e/	.	4cc\	.
8G\	.	.	.	.	.	.	.	.	.	.	.	.	.	.	.	.	.	.	.	.	.	.	.	.	.	.	.	.
*Xtremolo	*	*	*	*	*	*	*	*	*	*	*	*	*	*	*	*	*	*	*	*	*	*	*	*	*	*	*	*
!	!	!	!	!	!	!	!	!	!	!	!	!	!	!	!	!	!	!LO:LB:g=original	!	!	!	!	!	!	!	!	!	!
8GG/	.	.	4g\	.	4d/	.	4bn\	.	4GG/	-mi-	.	4G/	-mi-	.	4d\	-mi-	.	4bn\	-mi-	.	4g\	.	4g\	.	4d/	.	4bn\	.
8GG/J	.	.	.	.	.	.	.	.	.	.	.	.	.	.	.	.	.	.	.	.	.	.	.	.	.	.	.	.
!	!	!	!	!	!	!	!	!	!LO:LB:g=original	!	!	!	!	!	!	!	!	!	!	!	!	!	!	!	!	!	!	!
=24	=24	=24	=24	=24	=24	=24	=24	=24	=24	=24	=24	=24	=24	=24	=24	=24	=24	=24	=24	=24	=24	=24	=24	=24	=24	=24	=24	=24
!	!	!	!	!LO:DY:color=red	!LO:TX:t=P:problem:mixed beam	!	!	!LO:DY:color=red	!	!	!	!	!	!	!	!	!	!	!	!	!	!	!	!	!	!	!	!
4C/	.	.	4g\	p	8e/L	.	(8cc\L	p	4C/	-ne	.	4G/	-ne	.	4e\	-ne	.	4cc\	-ne	.	4c/	.	4g\	.	4e/	.	4cc\	.
!	!	!	!	!	!	!LO:DY:color=red	!	!	!	!	!	!	!	!	!	!	!	!	!	!	!	!	!	!	!	!	!	!
.	.	.	.	.	(8ee\	p	8gg\	.	.	.	.	.	.	.	.	.	.	.	.	.	.	.	.	.	.	.	.	.
!	!	!	!LO:TX:b:i:t=dolce:color=red	!	!	!	!	!	!	!	!	!	!	!	!	!	!	!	!	!	!	!	!	!	!	!	!	!
4r	.	.	(8f\L	.	8dd\	.	8ff\	.	4r	.	.	4r	.	.	4r	.	.	4r	.	.	4r	.	4r	.	4r	.	4r	.
.	.	.	8e\	.	8cc\	.	8ee\	.	.	.	.	.	.	.	.	.	.	.	.	.	.	.	.	.	.	.	.	.
4r	.	.	8d\	.	8bn\	.	8dd\	.	4r	.	.	4r	.	.	4r	.	.	4r	.	.	4r	.	4r	.	4r	.	4r	.
.	.	.	8c\J)	.	8a\J)	.	8cc\J)	.	.	.	.	.	.	.	.	.	.	.	.	.	.	.	.	.	.	.	.	.
!LO:LB:g=original	!	!	!	!	!LO:LB:g=original	!	!	!	!	!	!	!LO:LB:g=original	!	!	!	!	!	!	!	!	!	!	!	!	!	!	!	!
=25	=25	=25	=25	=25	=25	=25	=25	=25	=25	=25	=25	=25	=25	=25	=25	=25	=25	=25	=25	=25	=25	=25	=25	=25	=25	=25	=25	=25
!LO:TX:a:i:t=Solo	!	!LO:DY:t=p&colon;:color=red	!LO:SIC:v:s=(8Bn\L	!	!	!	!LO:SIC:v:s=(8bn\L	!	!LO:TX:a:t=15	!	!	!LO:TX:a:t=24	!	!	!LO:TX:a:t=24	!	!	!LO:TX:a:t=24	!	!	!LO:TX:a:t=3	!	!LO:TX:a:t=3	!	!LO:TX:a:t=i	!	!LO:TX:a:t=1	!
4GG/	.	p	(8B-\L	.	(8g\L	.	(8b-\L	.	0.r	.	.	0.r	.	.	0.r	.	.	0.r	.	.	1.r	.	1.r	.	2.r	.	2.r	.
.	.	.	8c\	.	8a\	.	8cc\	.	.	.	.	.	.	.	.	.	.	.	.	.	.	.	.	.	.	.	.	.
!	!	!	!	!	!LO:SIC:v:s=8bn\	!	!	!	!	!	!	!	!	!	!	!	!	!	!	!	!	!	!	!	!	!	!	!
4r	.	.	8d\	.	8b-\	.	8dd\	.	.	.	.	.	.	.	.	.	.	.	.	.	.	.	.	.	.	.	.	.
.	.	.	8e\)	.	8cc\	.	8ee\)	.	.	.	.	.	.	.	.	.	.	.	.	.	.	.	.	.	.	.	.	.
4r	.	.	8f\|	.	8dd\)	.	8ff\|	.	.	.	.	.	.	.	.	.	.	.	.	.	.	.	.	.	.	.	.	.
.	.	.	8f\J|	.	8dd\J|	.	8ff\J|	.	.	.	.	.	.	.	.	.	.	.	.	.	.	.	.	.	.	.	.	.
=26	=26	=26	=26	=26	=26	=26	=26	=26	=26	=26	=26	=26	=26	=26	=26	=26	=26	=26	=26	=26	=26	=26	=26	=26	=26	=26	=26	=26
!	!	!	!	!LO:DY:color=red	!	!LO:DY:color=red:t=m.f.:rj	!	!LO:DY:color=red:t=m.f.:rj	!	!	!	!	!	!	!	!	!	!	!	!	!	!	!	!	!	!LO:DY:color=red	!	!LO:DY:color=red
4C/	.	.	8e\L|	mf	8cc\L|	mf	8ee\L|	mf	.	.	.	.	.	.	.	.	.	.	.	.	.	.	.	.	4cc\	p	4ee\	p
.	.	.	8e\J|	.	8cc\J|	.	8ee\J|	.	.	.	.	.	.	.	.	.	.	.	.	.	.	.	.	.	.	.	.	.
.	.	.	16qqg/	.	16qqee/	.	16qqgg/	.	.	.	.	.	.	.	.	.	.	.	.	.	.	.	.	.	.	.	.	.
!	!	!	!	!	!	!	!LO:TX:a:t=t&colon;	!	!	!	!	!	!	!	!	!	!	!	!	!	!	!	!	!	!	!	!	!
4r	.	.	8f\L	.	8dd\L|	.	8ff\L	.	.	.	.	.	.	.	.	.	.	.	.	.	.	.	.	.	4dd\	.	4ffT\	.
.	.	.	16e\L	.	(16cc\L	.	16ee\L	.	.	.	.	.	.	.	.	.	.	.	.	.	.	.	.	.	.	.	.	.
.	.	.	16f\JJ	.	16dd\JJ)	.	16ff\JJ	.	.	.	.	.	.	.	.	.	.	.	.	.	.	.	.	.	.	.	.	.
4C/	.	.	8g\L|	.	8ee\L|	.	8gg\L|	.	.	.	.	.	.	.	.	.	.	.	.	.	.	.	.	.	4ee\	.	4gg\	.
.	.	.	8g\J|	.	8ee\J|	.	8gg\J|	.	.	.	.	.	.	.	.	.	.	.	.	.	.	.	.	.	.	.	.	.
!	!	!	!	!	!	!	!LO:LB:g=original	!	!	!	!	!	!	!	!	!	!	!	!	!	!	!	!	!	!	!	!	!
=27	=27	=27	=27	=27	=27	=27	=27	=27	=27	=27	=27	=27	=27	=27	=27	=27	=27	=27	=27	=27	=27	=27	=27	=27	=27	=27	=27	=27
4F\	.	.	8a\L	.	8ff\L|	.	8aa\L|	.	.	.	.	.	.	.	.	.	.	.	.	.	2.r	.	2.r	.	4ff\	.	4aa\	.
.	.	.	8a\	.	8ff\J|	.	8aa\J|	.	.	.	.	.	.	.	.	.	.	.	.	.	.	.	.	.	.	.	.	.
.	.	.	.	.	.	.	16qqccc/	.	.	.	.	.	.	.	.	.	.	.	.	.	.	.	.	.	.	.	.	.
!	!	!	!	!	!	!	!LO:TX:a:t=t&colon;	!	!	!	!	!	!	!	!	!	!	!	!	!	!	!	!	!	!	!	!	!
4D\	.	.	8f\	.	8dd\L|	.	8bbn\L	.	.	.	.	.	.	.	.	.	.	.	.	.	.	.	.	.	4dd\	.	4ff\	.
.	.	.	8f\	.	(16cc\L	.	16aa\L	.	.	.	.	.	.	.	.	.	.	.	.	.	.	.	.	.	.	.	.	.
.	.	.	.	.	16dd\JJ)	.	16bb\JJ	.	.	.	.	.	.	.	.	.	.	.	.	.	.	.	.	.	.	.	.	.
4E\	.	.	8g\	.	8ee\L|	.	8ccc\L|	.	.	.	.	.	.	.	.	.	.	.	.	.	.	.	.	.	4cc\	.	4ee\	.
.	.	.	8g\J	.	8ee\J|	.	8ccc\J|	.	.	.	.	.	.	.	.	.	.	.	.	.	.	.	.	.	.	.	.	.
!	!	!	!LO:LB:g=original	!	!	!	!	!	!	!	!	!	!	!	!	!	!	!	!	!	!	!	!	!	!	!	!	!
=28	=28	=28	=28	=28	=28	=28	=28	=28	=28	=28	=28	=28	=28	=28	=28	=28	=28	=28	=28	=28	=28	=28	=28	=28	=28	=28	=28	=28
.	.	.	.	.	16qqgg/	.	16qqbbn/	.	.	.	.	.	.	.	.	.	.	.	.	.	.	.	.	.	.	.	16qqgg/	.
!	!	!	!	!LO:DY:color=red	!	!LO:DY:color=red	!	!LO:DY:color=red:t=forto	!	!	!	!	!	!	!	!	!	!	!	!	!	!LO:DY:color=red	!	!LO:DY:color=red	!	!	!	!
4F\	.	.	8a\L	f	(8ff\L	f	8aa\L	f	.	.	.	.	.	.	.	.	.	.	.	.	4f\	f	4a\	f	(8a/L	.	(8ff\L	.
.	.	.	8f\J	.	16ee\L	.	(16gg\L	.	.	.	.	.	.	.	.	.	.	.	.	.	.	.	.	.	16g/L	.	16ee\L	.
.	.	.	.	.	16dd\JJ)	.	16ff\JJ)	.	.	.	.	.	.	.	.	.	.	.	.	.	.	.	.	.	16f/JJ)	.	16dd\JJ)	.
4G\	.	.	4g\	.	4cc\	.	4ee\	.	.	.	.	.	.	.	.	.	.	.	.	.	4g\	.	4g\	.	4e/	.	4cc\	.
4GG/	.	.	4g\	.	4bn\	.	4dd\	.	.	.	.	.	.	.	.	.	.	.	.	.	4g\	.	4g\	.	4d/	.	4bn\	.
=29	=29	=29	=29	=29	=29	=29	=29	=29	=29	=29	=29	=29	=29	=29	=29	=29	=29	=29	=29	=29	=29	=29	=29	=29	=29	=29	=29	=29
!LO:TX:a:t=4	!	!	!	!LO:DY:color=red:t=p&colon; dolce	!	!LO:DY:color=red:t=piano dolce	!LO:TX:b:i:t=Dolce:color=red	!	!	!	!	!	!	!	!	!	!	!	!	!	!LO:TX:a:t=20	!	!	!	!LO:TX:a:t=4	!	!LO:TX:a:t=4	!
0.r	.	.	8e\L|	p	8cc\L|	p	8ee\L|	.	0.r	.	.	0.r	.	.	0.r	.	.	0.r	.	.	0.r	.	0.r	.	0.r	.	0.r	.
.	.	.	8e\J|	.	8cc\J|	.	8ee\J|	.	.	.	.	.	.	.	.	.	.	.	.	.	.	.	.	.	.	.	.	.
.	.	.	.	.	16qqee/	.	16qqgg/	.	.	.	.	.	.	.	.	.	.	.	.	.	.	.	.	.	.	.	.	.
!	!	!	!	!	!	!	!LO:TX:a:t=t&colon;	!LO:DY:color=red	!	!	!	!	!	!	!	!	!	!	!	!	!	!	!	!	!	!	!	!
.	.	.	8f\L|	.	8dd\L|	.	8ff\L	p	.	.	.	.	.	.	.	.	.	.	.	.	.	.	.	.	.	.	.	.
.	.	.	(16e\L	.	(16cc\L	.	(16ee\L	.	.	.	.	.	.	.	.	.	.	.	.	.	.	.	.	.	.	.	.	.
.	.	.	16f\JJ)	.	16dd\JJ)	.	16ff\JJ)	.	.	.	.	.	.	.	.	.	.	.	.	.	.	.	.	.	.	.	.	.
.	.	.	4g\	.	4ee\|	.	4gg\	.	.	.	.	.	.	.	.	.	.	.	.	.	.	.	.	.	.	.	.	.
=30	=30	=30	=30	=30	=30	=30	=30	=30	=30	=30	=30	=30	=30	=30	=30	=30	=30	=30	=30	=30	=30	=30	=30	=30	=30	=30	=30	=30
.	.	.	8e\L|	.	8cc\L|	.	8ee\L|	.	.	.	.	.	.	.	.	.	.	.	.	.	.	.	.	.	.	.	.	.
.	.	.	8e\J|	.	8cc\J|	.	8ee\J|	.	.	.	.	.	.	.	.	.	.	.	.	.	.	.	.	.	.	.	.	.
.	.	.	16qqg/	.	16qqee/	.	16qqgg/	.	.	.	.	.	.	.	.	.	.	.	.	.	.	.	.	.	.	.	.	.
!	!	!	!	!	!	!	!LO:TX:a:t=t&colon;	!	!	!	!	!	!	!	!	!	!	!	!	!	!	!	!	!	!	!	!	!
.	.	.	8f\L	.	8dd\L|	.	8ff\L	.	.	.	.	.	.	.	.	.	.	.	.	.	.	.	.	.	.	.	.	.
.	.	.	(16e\L	.	(16cc\L	.	(16ee\L	.	.	.	.	.	.	.	.	.	.	.	.	.	.	.	.	.	.	.	.	.
.	.	.	16f\JJ)	.	16dd\JJ)	.	16ff\JJ)	.	.	.	.	.	.	.	.	.	.	.	.	.	.	.	.	.	.	.	.	.
.	.	.	4g\	.	4ee\|	.	4gg\	.	.	.	.	.	.	.	.	.	.	.	.	.	.	.	.	.	.	.	.	.
=31	=31	=31	=31	=31	=31	=31	=31	=31	=31	=31	=31	=31	=31	=31	=31	=31	=31	=31	=31	=31	=31	=31	=31	=31	=31	=31	=31	=31
.	.	.	(16a\LL	.	(16ff\LL	.	(16aa\LL	.	.	.	.	.	.	.	.	.	.	.	.	.	.	.	.	.	.	.	.	.
.	.	.	16g\	.	16ee\	.	16gg\	.	.	.	.	.	.	.	.	.	.	.	.	.	.	.	.	.	.	.	.	.
.	.	.	16a\	.	16ff\	.	16aa\	.	.	.	.	.	.	.	.	.	.	.	.	.	.	.	.	.	.	.	.	.
.	.	.	16bn\JJ)	.	16gg\JJ)	.	16bbn\JJ)	.	.	.	.	.	.	.	.	.	.	.	.	.	.	.	.	.	.	.	.	.
!	!	!	!	!	!LO:LB:g=original	!	!	!	!	!	!	!	!	!	!	!	!	!	!	!	!	!	!	!	!	!	!	!
.	.	.	8cc\L|	.	8aa\L|	.	8ccc\L|	.	.	.	.	.	.	.	.	.	.	.	.	.	.	.	.	.	.	.	.	.
.	.	.	8b\|	.	8gg\|	.	8bb\|	.	.	.	.	.	.	.	.	.	.	.	.	.	.	.	.	.	.	.	.	.
.	.	.	8a\|	.	8ff\|	.	8aa\|	.	.	.	.	.	.	.	.	.	.	.	.	.	.	.	.	.	.	.	.	.
.	.	.	8g\J|	.	8ee\J|	.	8gg\J|	.	.	.	.	.	.	.	.	.	.	.	.	.	.	.	.	.	.	.	.	.
=32	=32	=32	=32	=32	=32	=32	=32	=32	=32	=32	=32	=32	=32	=32	=32	=32	=32	=32	=32	=32	=32	=32	=32	=32	=32	=32	=32	=32
.	.	.	(8g\L	.	(8ee\L	.	(8gg\L	.	.	.	.	.	.	.	.	.	.	.	.	.	.	.	.	.	.	.	.	.
.	.	.	8f\)	.	8dd\)	.	8ff\)	.	.	.	.	.	.	.	.	.	.	.	.	.	.	.	.	.	.	.	.	.
.	.	.	8e\|	.	8cc\|	.	8ee\|	.	.	.	.	.	.	.	.	.	.	.	.	.	.	.	.	.	.	.	.	.
.	.	.	8d\|	.	8bn\|	.	8dd\|	.	.	.	.	.	.	.	.	.	.	.	.	.	.	.	.	.	.	.	.	.
.	.	.	8e\|	.	8cc\|	.	8ee\|	.	.	.	.	.	.	.	.	.	.	.	.	.	.	.	.	.	.	.	.	.
.	.	.	8f\J|	.	8dd\J|	.	8ff\J|	.	.	.	.	.	.	.	.	.	.	.	.	.	.	.	.	.	.	.	.	.
=33	=33	=33	=33	=33	=33	=33	=33	=33	=33	=33	=33	=33	=33	=33	=33	=33	=33	=33	=33	=33	=33	=33	=33	=33	=33	=33	=33	=33
!	!	!LO:DY:color=red:t=mezzo fort	!	!LO:DY:color=red:t=mf.	!	!LO:DY:color=red:t=m.f.	!	!LO:DY:color=red:t=mezzo forto	!	!	!	!	!	!	!	!	!	!	!	!	!	!	!	!	!	!LO:DY:color=red:t=p&colon;	!	!LO:DY:color=red:t=p&colon;
4E\|	.	mf	8G/L 8e	mf	8cc\L|	mf	8gg\L|	mf	0.r	.	.	0.r	.	.	0.r	.	.	0.r	.	.	0.r	.	0.r	.	4ee\	p	4gg\	p
.	.	.	8G/ 8e	.	8cc\J|	.	8gg\J|	.	.	.	.	.	.	.	.	.	.	.	.	.	.	.	.	.	.	.	.	.
*	*	*	*	*	*tremolo	*	*	*	*	*	*	*	*	*	*	*	*	*	*	*	*	*	*	*	*	*	*	*
!	!	!	!	!	!LO:TX:a:t=''''	!	!	!	!	!	!	!	!	!	!	!	!	!	!	!	!	!	!	!	!	!	!	!
4D\|	.	.	8G/ 8d	.	8bn\L|	.	8ff\L|	.	.	.	.	.	.	.	.	.	.	.	.	.	.	.	.	.	4dd\	.	4ff\	.
!	!	!	!	!	!	!	!LO:TUP:a:problem:klamra łukowa	!	!	!	!	!	!	!	!	!	!	!	!	!	!	!	!	!	!	!	!	!
.	.	.	8G/ 8d	.	8b\|	.	24ff\L	.	.	.	.	.	.	.	.	.	.	.	.	.	.	.	.	.	.	.	.	.
.	.	.	.	.	.	.	24gg\	.	.	.	.	.	.	.	.	.	.	.	.	.	.	.	.	.	.	.	.	.
.	.	.	.	.	.	.	24ff\JJ	.	.	.	.	.	.	.	.	.	.	.	.	.	.	.	.	.	.	.	.	.
4GG/|	.	.	8G/ 8g	.	8b\|	.	8dd\L|	.	.	.	.	.	.	.	.	.	.	.	.	.	.	.	.	.	4bn\	.	4dd\	.
.	.	.	8G/J 8g	.	8b\J|	.	8dd\J|	.	.	.	.	.	.	.	.	.	.	.	.	.	.	.	.	.	.	.	.	.
*	*	*	*	*	*Xtremolo	*	*	*	*	*	*	*	*	*	*	*	*	*	*	*	*	*	*	*	*	*	*	*
!	!	!	!	!	!	!	!LO:PB:g=original	!	!	!	!	!	!	!	!	!	!	!	!	!	!	!	!	!	!	!	!	!
=34	=34	=34	=34	=34	=34	=34	=34	=34	=34	=34	=34	=34	=34	=34	=34	=34	=34	=34	=34	=34	=34	=34	=34	=34	=34	=34	=34	=34
4E\|	.	.	8G/L 8e	.	8cc\L	.	8gg\L|	.	.	.	.	.	.	.	.	.	.	.	.	.	.	.	.	.	4ee\	.	4gg\	.
.	.	.	8G/ 8e	.	8cc\J	.	8gg\J|	.	.	.	.	.	.	.	.	.	.	.	.	.	.	.	.	.	.	.	.	.
*	*	*	*	*	*tremolo	*	*	*	*	*	*	*	*	*	*	*	*	*	*	*	*	*	*	*	*	*	*	*
!	!	!	!	!	!LO:TX:a:t=''''	!	!	!	!	!	!	!	!	!	!	!	!	!	!	!	!	!	!	!	!	!	!	!
!	!	!	!	!	!LO:SIC:v:s=8bn\L|	!	!	!	!	!	!	!	!	!	!	!	!	!	!	!	!	!	!	!	!	!	!	!
4D\|	.	.	8G/ 8d	.	8b-\L|	.	8ff\L|	.	.	.	.	.	.	.	.	.	.	.	.	.	.	.	.	.	4dd\	.	4ff\	.
!	!	!	!	!	!LO:SIC:v:s=8b\|	!	!LO:TUP:a:problem:klamra łukowa	!	!	!	!	!	!	!	!	!	!	!	!	!	!	!	!	!	!	!	!	!
.	.	.	8G/ 8d	.	8b-\|	.	24ff\L	.	.	.	.	.	.	.	.	.	.	.	.	.	.	.	.	.	.	.	.	.
.	.	.	.	.	.	.	24gg\	.	.	.	.	.	.	.	.	.	.	.	.	.	.	.	.	.	.	.	.	.
.	.	.	.	.	.	.	24ff\JJ	.	.	.	.	.	.	.	.	.	.	.	.	.	.	.	.	.	.	.	.	.
!	!	!	!	!	!LO:SIC:v:s=8b\|	!	!	!	!	!	!	!	!	!	!	!	!	!	!	!	!	!	!	!	!LO:SIC:v:s=4bn\	!	!	!
4GG/|	.	.	8G/ 8g	.	8b-\|	.	8dd\L|	.	.	.	.	.	.	.	.	.	.	.	.	.	.	.	.	.	4b-\	.	4dd\	.
!	!	!	!	!	!LO:SIC:v:s=8b\J|	!	!	!	!	!	!	!	!	!	!	!	!	!	!	!	!	!	!	!	!	!	!	!
.	.	.	8G/J 8g	.	8b-\J|	.	8dd\J|	.	.	.	.	.	.	.	.	.	.	.	.	.	.	.	.	.	.	.	.	.
*	*	*	*	*	*Xtremolo	*	*	*	*	*	*	*	*	*	*	*	*	*	*	*	*	*	*	*	*	*	*	*
!	!	!	!LO:LB:g=original	!	!	!	!	!	!	!	!	!	!	!	!	!	!	!	!	!	!	!	!	!	!	!	!LO:LB:g=original	!
=35	=35	=35	=35	=35	=35	=35	=35	=35	=35	=35	=35	=35	=35	=35	=35	=35	=35	=35	=35	=35	=35	=35	=35	=35	=35	=35	=35	=35
4C/|	.	.	8g\L	.	(8g/L	.	(8ee\L	.	.	.	.	.	.	.	.	.	.	.	.	.	.	.	.	.	4cc\	.	4ee\	.
.	.	.	8g\	.	8e/J)	.	8cc\J)	.	.	.	.	.	.	.	.	.	.	.	.	.	.	.	.	.	.	.	.	.
4F\|	.	.	8a\	.	(32a/LLL	.	(32ff\LLL	.	.	.	.	.	.	.	.	.	.	.	.	.	.	.	.	.	4r	.	4r	.
.	.	.	.	.	32g/JJ	.	32ee\JJ	.	.	.	.	.	.	.	.	.	.	.	.	.	.	.	.	.	.	.	.	.
.	.	.	.	.	8.f/J)	.	8.dd\J)	.	.	.	.	.	.	.	.	.	.	.	.	.	.	.	.	.	.	.	.	.
.	.	.	8a\	.	.	.	.	.	.	.	.	.	.	.	.	.	.	.	.	.	.	.	.	.	.	.	.	.
!	!	!	!	!	!LO:LB:g=original	!	!	!	!	!	!	!	!	!	!	!	!	!	!	!	!	!	!	!	!	!	!	!
4G\|	.	.	8g\	.	(32f/LLL	.	(32dd\LLL	.	.	.	.	.	.	.	.	.	.	.	.	.	.	.	.	.	4r	.	4r	.
.	.	.	.	.	32e/JJ	.	32cc\JJ	.	.	.	.	.	.	.	.	.	.	.	.	.	.	.	.	.	.	.	.	.
.	.	.	.	.	8.d/J)	.	8.bn\J)	.	.	.	.	.	.	.	.	.	.	.	.	.	.	.	.	.	.	.	.	.
.	.	.	8g\J	.	.	.	.	.	.	.	.	.	.	.	.	.	.	.	.	.	.	.	.	.	.	.	.	.
!	!	!	!	!	!	!	!	!	!	!	!	!	!	!	!	!	!	!	!	!	!	!	!	!	!LO:LB:g=original	!	!	!
=36	=36	=36	=36	=36	=36	=36	=36	=36	=36	=36	=36	=36	=36	=36	=36	=36	=36	=36	=36	=36	=36	=36	=36	=36	=36	=36	=36	=36
!	!	!	!	!LO:DY:color=red	!	!LO:DY:color=red	!	!LO:DY:color=red	!	!	!	!	!	!	!	!	!	!	!	!	!	!	!	!	!	!LO:DY:color=red	!	!LO:DY:color=red:t=pp.
4E\|	.	.	8G/L 8e	p	8cc\L|	p	8gg\L|	p	.	.	.	.	.	.	.	.	.	.	.	.	.	.	.	.	4ee\	pp	4gg\	pp
.	.	.	8G/ 8e	.	8cc\J|	.	8gg\J|	.	.	.	.	.	.	.	.	.	.	.	.	.	.	.	.	.	.	.	.	.
*	*	*	*	*	*tremolo	*	*	*	*	*	*	*	*	*	*	*	*	*	*	*	*	*	*	*	*	*	*	*
!	!	!	!	!	!LO:TX:a:t=''''	!	!	!	!	!	!	!	!	!	!	!	!	!	!	!	!	!	!	!	!	!	!	!
4D\|	.	.	8G/ 8d	.	8bn\L|	.	8ff\L|	.	.	.	.	.	.	.	.	.	.	.	.	.	.	.	.	.	4dd\	.	4ff\	.
!	!	!	!	!	!	!	!LO:TUP:a:problem:klamra łukowa	!	!	!	!	!	!	!	!	!	!	!	!	!	!	!	!	!	!	!	!	!
.	.	.	8G/ 8d	.	8b\|	.	24ff\L	.	.	.	.	.	.	.	.	.	.	.	.	.	.	.	.	.	.	.	.	.
.	.	.	.	.	.	.	24gg\	.	.	.	.	.	.	.	.	.	.	.	.	.	.	.	.	.	.	.	.	.
.	.	.	.	.	.	.	24ff\JJ	.	.	.	.	.	.	.	.	.	.	.	.	.	.	.	.	.	.	.	.	.
!	!	!	!	!	!	!	!	!	!	!	!	!	!	!	!	!	!	!	!	!	!	!	!	!	!LO:SIC:v:s=4bn\	!	!	!
4GG/|	.	.	8G/ 8g	.	8b\|	.	8dd\L|	.	.	.	.	.	.	.	.	.	.	.	.	.	.	.	.	.	4b-\	.	4dd\	.
.	.	.	8G/J 8g	.	8b\J|	.	8dd\J|	.	.	.	.	.	.	.	.	.	.	.	.	.	.	.	.	.	.	.	.	.
*	*	*	*	*	*Xtremolo	*	*	*	*	*	*	*	*	*	*	*	*	*	*	*	*	*	*	*	*	*	*	*
=37	=37	=37	=37	=37	=37	=37	=37	=37	=37	=37	=37	=37	=37	=37	=37	=37	=37	=37	=37	=37	=37	=37	=37	=37	=37	=37	=37	=37
4E\|	.	.	8G/L 8e	.	8cc\L	.	8gg\L|	.	1.r	.	.	0.r	.	.	0.r	.	.	0.r	.	.	0.r	.	0.r	.	4ee\	.	4gg\	.
.	.	.	8G/ 8e	.	8cc\J	.	8gg\J|	.	.	.	.	.	.	.	.	.	.	.	.	.	.	.	.	.	.	.	.	.
*	*	*	*	*	*tremolo	*	*	*	*	*	*	*	*	*	*	*	*	*	*	*	*	*	*	*	*	*	*	*
!	!	!	!	!	!LO:TX:a:t=''''	!	!	!	!	!	!	!	!	!	!	!	!	!	!	!	!	!	!	!	!	!	!	!
!	!	!	!	!	!LO:SIC:v:s=8bn\L	!	!	!	!	!	!	!	!	!	!	!	!	!	!	!	!	!	!	!	!	!	!	!
4D\|	.	.	8G/ 8d	.	8b-\L	.	8ff\L|	.	.	.	.	.	.	.	.	.	.	.	.	.	.	.	.	.	4dd\	.	4ff\	.
!	!	!	!	!	!LO:SIC:v:s=8b\	!	!LO:TUP:a:problem:klamra łukowa	!	!	!	!	!	!	!	!	!	!	!	!	!	!	!	!	!	!	!	!	!
.	.	.	8G/ 8d	.	8b-\	.	24ff\L	.	.	.	.	.	.	.	.	.	.	.	.	.	.	.	.	.	.	.	.	.
.	.	.	.	.	.	.	24gg\	.	.	.	.	.	.	.	.	.	.	.	.	.	.	.	.	.	.	.	.	.
.	.	.	.	.	.	.	24ff\JJ	.	.	.	.	.	.	.	.	.	.	.	.	.	.	.	.	.	.	.	.	.
!	!	!	!	!	!LO:SIC:v:s=8b\	!	!	!	!	!	!	!	!	!	!	!	!	!	!	!	!	!	!	!	!LO:SIC:v:s=4bn\	!	!	!
4GG/|	.	.	8G/ 8g	.	8b-\	.	8dd\L|	.	.	.	.	.	.	.	.	.	.	.	.	.	.	.	.	.	4b-\	.	4dd\	.
!	!	!	!	!	!LO:SIC:v:s=8b\J	!	!	!	!	!	!	!	!	!	!	!	!	!	!	!	!	!	!	!	!	!	!	!
.	.	.	8G/J 8g	.	8b-\J	.	8dd\J|	.	.	.	.	.	.	.	.	.	.	.	.	.	.	.	.	.	.	.	.	.
*	*	*	*	*	*Xtremolo	*	*	*	*	*	*	*	*	*	*	*	*	*	*	*	*	*	*	*	*	*	*	*
=38	=38	=38	=38	=38	=38	=38	=38	=38	=38	=38	=38	=38	=38	=38	=38	=38	=38	=38	=38	=38	=38	=38	=38	=38	=38	=38	=38	=38
!	!	!	!	!	!	!LO:DY:color=red	!	!LO:DY:color=red	!	!	!	!	!	!	!	!	!	!	!	!	!	!	!	!	!	!	!	!
4C/|	.	.	8g\L	f	(8g/L	f	(8ee\L	f	.	.	.	.	.	.	.	.	.	.	.	.	.	.	.	.	8g/L	.	8ee\L	.
.	.	.	8g\	.	8e/J)	.	8cc\J)	.	.	.	.	.	.	.	.	.	.	.	.	.	.	.	.	.	8e/J	.	8cc\J	.
4F\|	.	.	8a\	.	(32a/LLL	.	(32ff\LLL	.	.	.	.	.	.	.	.	.	.	.	.	.	.	.	.	.	32a/LLL	.	(32ff\LLL	.
.	.	.	.	.	32g/JJ	.	32ee\JJ	.	.	.	.	.	.	.	.	.	.	.	.	.	.	.	.	.	32g/JJ	.	32ee\JJ	.
.	.	.	.	.	8.f/J)	.	8.dd\J)	.	.	.	.	.	.	.	.	.	.	.	.	.	.	.	.	.	8.f/J	.	8.dd\J)	.
.	.	.	8a\	.	.	.	.	.	.	.	.	.	.	.	.	.	.	.	.	.	.	.	.	.	.	.	.	.
4G\|	.	.	8g\	.	(32f/LLL	.	(32dd\LLL	.	.	.	.	.	.	.	.	.	.	.	.	.	.	.	.	.	32f/LLL	.	(32dd\LLL	.
.	.	.	.	.	32e/JJ	.	32cc\JJ	.	.	.	.	.	.	.	.	.	.	.	.	.	.	.	.	.	32e/JJ	.	32cc\JJ	.
!	!	!	!	!	!	!	!LO:SIC:v:s=8.bn\J)	!	!	!	!	!	!	!	!	!	!	!	!	!	!	!	!	!	!	!	!LO:SIC:v:s=8.bn\J)	!
.	.	.	.	.	8.d/J)	.	8.b-\J)	.	.	.	.	.	.	.	.	.	.	.	.	.	.	.	.	.	8.d/J	.	8.b-\J)	.
.	.	.	8g\J	.	.	.	.	.	.	.	.	.	.	.	.	.	.	.	.	.	.	.	.	.	.	.	.	.
=39	=39	=39	=39	=39	=39	=39	=39	=39	=39	=39	=39	=39	=39	=39	=39	=39	=39	=39	=39	=39	=39	=39	=39	=39	=39	=39	=39	=39
*	*	*	*	*	*	*	*2\right	*	*	*	*	*	*	*	*	*	*	*	*	*	*	*	*	*	*	*	*	*
!	!	!	!	!	!	!	!LO:SIC:v:s=2bn\	!	!	!	!	!	!	!	!	!	!	!	!	!	!	!	!	!	!	!LO:DY:color=red	!LO:SIC:v:s=2bn\	!LO:DY:color=red:t=fort
2G\	3 5	.	2g\	.	2d/	.	2b-\	.	2.r	.	.	.	.	.	.	.	.	.	.	.	.	.	.	.	2d/	f	2b-\	f
4C/	3	.	8g\	.	8e/	.	8cc\	.	.	.	.	.	.	.	.	.	.	.	.	.	.	.	.	.	8e/	.	8cc\	.
.	.	.	8r	.	8r	.	8r	.	.	.	.	.	.	.	.	.	.	.	.	.	.	.	.	.	8r	.	8r	.
=40	=40	=40	=40	=40	=40	=40	=40	=40	=40	=40	=40	=40	=40	=40	=40	=40	=40	=40	=40	=40	=40	=40	=40	=40	=40	=40	=40	=40
*	*	*	*tremolo	*	*tremolo	*	*	*	*	*	*	*	*	*	*	*	*	*	*	*	*	*	*	*	*	*	*	*
!	!	!LO:DY:color=red:t=p&colon;	!	!LO:DY:color=red:t=p. vox	!LO:TX:b:i:t=vox:color=red	!LO:DY:color=red:t=p.:rj	!	!LO:DY:color=red:t=p.	!LO:TX:a:i:t=do[l]ce:color=red	!	!LO:DY:b:color=red	!	!	!	!	!	!	!	!	!	!	!	!	!	!LO:TX:a:t=5	!	!LO:TX:a:t=5	!
4C/	.	p	8G/L	p	8e/L	p	4gg\	p	(4G\	A-	f	.	.	.	.	.	.	.	.	.	.	.	.	.	0.r	.	0.r	.
.	.	.	8G/	.	8e/	.	.	.	.	.	.	.	.	.	.	.	.	.	.	.	.	.	.	.	.	.	.	.
!LO:TX:b:t=vox	!	!	!	!	!	!	!LO:TX:b:i:t=vox:color=red	!	!	!	!	!	!	!	!	!	!	!	!	!	!	!	!	!	!	!	!	!
4E\	.	.	8G/	.	8e/	.	4ccc\	.	4c\)	.	.	.	.	.	.	.	.	.	.	.	.	.	.	.	.	.	.	.
.	.	.	8G/	.	8e/J	.	.	.	.	.	.	.	.	.	.	.	.	.	.	.	.	.	.	.	.	.	.	.
*	*	*	*	*	*Xtremolo	*	*	*	*	*	*	*	*	*	*	*	*	*	*	*	*	*	*	*	*	*	*	*
4C/	.	.	8G/	.	8c/L	.	8ee\L	.	8E\L	-gnus	.	.	.	.	.	.	.	.	.	.	.	.	.	.	.	.	.	.
.	.	.	8G/J	.	8e/J	.	8gg\J	.	8G\J	.	.	.	.	.	.	.	.	.	.	.	.	.	.	.	.	.	.	.
!	!	!	!	!	!	!	!LO:LB:g=original	!	!	!	!	!	!	!	!	!	!	!	!	!	!	!	!	!	!	!	!	!
=41	=41	=41	=41	=41	=41	=41	=41	=41	=41	=41	=41	=41	=41	=41	=41	=41	=41	=41	=41	=41	=41	=41	=41	=41	=41	=41	=41	=41
4D/	.	.	8G/L	.	(16e/LL	.	(16gg\LL	.	16G\LL	De-	.	0.r	.	.	0.r	.	.	0.r	.	.	0.r	.	0.r	.	.	.	.	.
.	.	.	.	.	16d/	.	16ff\	.	16F\	.	.	.	.	.	.	.	.	.	.	.	.	.	.	.	.	.	.	.
.	.	.	8G/	.	16c/	.	16ee\	.	16E\	.	.	.	.	.	.	.	.	.	.	.	.	.	.	.	.	.	.	.
.	.	.	.	.	16d/JJ)	.	16ff\JJ)	.	16F\JJ	.	.	.	.	.	.	.	.	.	.	.	.	.	.	.	.	.	.	.
4GG/	n	.	8G/	.	8Bn/L	.	4dd\	.	4D\	-i	.	.	.	.	.	.	.	.	.	.	.	.	.	.	.	.	.	.
.	.	.	8G/	.	8B/	.	.	.	.	.	.	.	.	.	.	.	.	.	.	.	.	.	.	.	.	.	.	.
4C/	.	.	8G/	.	8c/	.	4ee\	.	4E\	qui	.	.	.	.	.	.	.	.	.	.	.	.	.	.	.	.	.	.
.	.	.	8G/J	.	8c/J	.	.	.	.	.	.	.	.	.	.	.	.	.	.	.	.	.	.	.	.	.	.	.
*	*	*	*Xtremolo	*	*	*	*	*	*	*	*	*	*	*	*	*	*	*	*	*	*	*	*	*	*	*	*	*
!LO:LB:g=original	!	!	!	!	!	!	!	!	!	!	!	!	!	!	!	!	!	!	!	!	!	!	!	!	!	!	!	!
=42	=42	=42	=42	=42	=42	=42	=42	=42	=42	=42	=42	=42	=42	=42	=42	=42	=42	=42	=42	=42	=42	=42	=42	=42	=42	=42	=42	=42
4F\	.	.	8A/L	.	8f/L	.	(16gg\LL	.	16G\LL	tol-	.	.	.	.	.	.	.	.	.	.	.	.	.	.	.	.	.	.
.	.	.	.	.	.	.	16ff\	.	16F\	.	.	.	.	.	.	.	.	.	.	.	.	.	.	.	.	.	.	.
.	.	.	8A/	.	8f/	.	16ee\	.	16E\	.	.	.	.	.	.	.	.	.	.	.	.	.	.	.	.	.	.	.
.	.	.	.	.	.	.	16dd\JJ)	.	16D\JJ	.	.	.	.	.	.	.	.	.	.	.	.	.	.	.	.	.	.	.
*	*	*	*tremolo	*	*	*	*	*	*	*	*	*	*	*	*	*	*	*	*	*	*	*	*	*	*	*	*	*
4G\	.	.	8G/	.	8e/	.	4cc\	.	4C/	-lis	.	.	.	.	.	.	.	.	.	.	.	.	.	.	.	.	.	.
.	.	.	8G/	.	8e/	.	.	.	.	.	.	.	.	.	.	.	.	.	.	.	.	.	.	.	.	.	.	.
4GG/	n	.	8G/	.	8d/	.	4bn\	.	4BBn/	Pec-	.	.	.	.	.	.	.	.	.	.	.	.	.	.	.	.	.	.
.	.	.	8G/J	.	8d/J	.	.	.	.	.	.	.	.	.	.	.	.	.	.	.	.	.	.	.	.	.	.	.
*	*	*	*Xtremolo	*	*	*	*	*	*	*	*	*	*	*	*	*	*	*	*	*	*	*	*	*	*	*	*	*
=43	=43	=43	=43	=43	=43	=43	=43	=43	=43	=43	=43	=43	=43	=43	=43	=43	=43	=43	=43	=43	=43	=43	=43	=43	=43	=43	=43	=43
4C/	.	.	4G/	.	4e/	.	(8cc\L	.	8C\L	-ca-	.	.	.	.	.	.	.	.	.	.	.	.	.	.	.	.	.	.
.	.	.	.	.	.	.	8ee\J)	.	8E\	.	.	.	.	.	.	.	.	.	.	.	.	.	.	.	.	.	.	.
4r	.	.	4r	.	4r	.	(8gg\L	.	8G\	.	.	.	.	.	.	.	.	.	.	.	.	.	.	.	.	.	.	.
.	.	.	.	.	.	.	8ee\)	.	8E\J	.	.	.	.	.	.	.	.	.	.	.	.	.	.	.	.	.	.	.
!	!	!	!LO:LB:g=original	!	!	!	!	!	!	!	!	!	!	!	!	!	!	!	!	!	!	!	!	!	!	!	!	!
!	!	!	!LO:TX:t=P:problem:mixed beam	!	!LO:TX:t=P:problem:mixed beam	!	!	!	!	!	!	!	!	!	!	!	!	!	!	!	!	!	!	!	!	!	!	!
4C/	.	.	8G/L	.	8e/L	.	(8ccc\	.	8c\L	-ta	.	.	.	.	.	.	.	.	.	.	.	.	.	.	.	.	.	.
.	.	.	8g\J	.	8cc\J	.	8ee\J)	.	8E\J	.	.	.	.	.	.	.	.	.	.	.	.	.	.	.	.	.	.	.
=44	=44	=44	=44	=44	=44	=44	=44	=44	=44	=44	=44	=44	=44	=44	=44	=44	=44	=44	=44	=44	=44	=44	=44	=44	=44	=44	=44	=44
4GG/	.	.	4g\	.	16ee\LL	.	(16gg\LL	.	16G\LL	mun-	.	.	.	.	.	.	.	.	.	.	.	.	.	.	2.r	.	2.r	.
.	.	.	.	.	16dd\	.	16ff\	.	16F\	.	.	.	.	.	.	.	.	.	.	.	.	.	.	.	.	.	.	.
.	.	.	.	.	16cc\	.	16ee\	.	16E\	.	.	.	.	.	.	.	.	.	.	.	.	.	.	.	.	.	.	.
.	.	.	.	.	16dd\JJ	.	16ff\JJ)	.	16F\JJ	.	.	.	.	.	.	.	.	.	.	.	.	.	.	.	.	.	.	.
.	.	.	.	.	16qqdd/	.	8qqff/	.	.	.	.	.	.	.	.	.	.	.	.	.	.	.	.	.	.	.	.	.
4CC/	.	.	4g\	.	4cc\	.	4ee\	.	4E\	-di	.	.	.	.	.	.	.	.	.	.	.	.	.	.	.	.	.	.
4r	.	.	4r	.	4r	.	4r	.	4r	.	.	.	.	.	.	.	.	.	.	.	.	.	.	.	.	.	.	.
!	!	!	!	!	!	!	!	!	!LO:LB:g=original	!	!	!	!	!	!	!	!	!	!	!	!	!	!	!	!	!	!	!
=45	=45	=45	=45	=45	=45	=45	=45	=45	=45	=45	=45	=45	=45	=45	=45	=45	=45	=45	=45	=45	=45	=45	=45	=45	=45	=45	=45	=45
*	*	*	*tremolo	*	*tremolo	*	*	*	*	*	*	*	*	*	*	*	*	*	*	*	*	*	*	*	*	*	*	*
!	!	!	!	!	!	!	!	!	!	!	!	!	!	!	!	!	!	!	!	!	!	!	!	!	!	!LO:DY:color=red:t=p&colon;	!	!LO:DY:color=red:t=piano
4F\	.	.	8f\L	.	8cc\L	.	(4aa\	.	4A\	qui	.	0.r	.	.	0.r	.	.	0.r	.	.	0.r	.	0.r	.	2.a/	p	2.ff\	p
.	.	.	8f\	.	8cc\	.	.	.	.	.	.	.	.	.	.	.	.	.	.	.	.	.	.	.	.	.	.	.
4r	.	.	8f\	.	8cc\	.	4ff\)	.	4F\	tol-	.	.	.	.	.	.	.	.	.	.	.	.	.	.	.	.	.	.
.	.	.	8f\	.	8cc\	.	.	.	.	.	.	.	.	.	.	.	.	.	.	.	.	.	.	.	.	.	.	.
.	.	.	.	.	.	.	16qqbbn/	.	.	.	.	.	.	.	.	.	.	.	.	.	.	.	.	.	.	.	.	.
4F\	.	.	8f\	.	8cc\	.	4ccc\	.	4c\	-lis	.	.	.	.	.	.	.	.	.	.	.	.	.	.	.	.	.	.
.	.	.	8f\J	.	8cc\J	.	.	.	.	.	.	.	.	.	.	.	.	.	.	.	.	.	.	.	.	.	.	.
=46	=46	=46	=46	=46	=46	=46	=46	=46	=46	=46	=46	=46	=46	=46	=46	=46	=46	=46	=46	=46	=46	=46	=46	=46	=46	=46	=46	=46
4C/	.	.	8e\L	.	8cc\L	.	(4gg\	.	4G\	Pec-	.	.	.	.	.	.	.	.	.	.	.	.	.	.	2.g/	.	2.ee\	.
.	.	.	8e\	.	8cc\	.	.	.	.	.	.	.	.	.	.	.	.	.	.	.	.	.	.	.	.	.	.	.
4r	.	.	8e\	.	8cc\	.	4ee\)	.	4E\	-ca-	.	.	.	.	.	.	.	.	.	.	.	.	.	.	.	.	.	.
.	.	.	8e\	.	8cc\	.	.	.	.	.	.	.	.	.	.	.	.	.	.	.	.	.	.	.	.	.	.	.
.	.	.	.	.	.	.	16qqbbn/	.	.	.	.	.	.	.	.	.	.	.	.	.	.	.	.	.	.	.	.	.
4E\	.	.	8e\	.	8cc\	.	4ccc\	.	4c\	-ta	.	.	.	.	.	.	.	.	.	.	.	.	.	.	.	.	.	.
.	.	.	8e\J	.	8cc\J	.	.	.	.	.	.	.	.	.	.	.	.	.	.	.	.	.	.	.	.	.	.	.
!	!	!	!	!	!LO:LB:g=original	!	!	!	!	!	!	!	!	!	!	!	!	!	!	!	!	!	!	!	!	!	!	!
=47	=47	=47	=47	=47	=47	=47	=47	=47	=47	=47	=47	=47	=47	=47	=47	=47	=47	=47	=47	=47	=47	=47	=47	=47	=47	=47	=47	=47
4D/	.	.	8d\L	.	8bn\L	.	(16gg\LL	.	16G\LL	pec-	.	.	.	.	.	.	.	.	.	.	.	.	.	.	4r	.	4r	.
.	.	.	.	.	.	.	16ff\	.	16F\	.	.	.	.	.	.	.	.	.	.	.	.	.	.	.	.	.	.	.
.	.	.	8d\	.	8b\	.	16ee\	.	16E\	.	.	.	.	.	.	.	.	.	.	.	.	.	.	.	.	.	.	.
.	.	.	.	.	.	.	16ff\JJ)	.	16F\JJ	.	.	.	.	.	.	.	.	.	.	.	.	.	.	.	.	.	.	.
4BBn/	.	.	8d\	.	8b\	.	4ff\	.	8d\L	-ca-	.	.	.	.	.	.	.	.	.	.	.	.	.	.	4f/	.	(4dd\	.
.	.	.	8d\J	.	8b\J	.	.	.	8F\J	.	.	.	.	.	.	.	.	.	.	.	.	.	.	.	.	.	.	.
*	*	*	*Xtremolo	*	*Xtremolo	*	*	*	*	*	*	*	*	*	*	*	*	*	*	*	*	*	*	*	*	*	*	*
4C/	.	.	8g\L	.	8cc\L	.	4ee\	.	8E\L	-ta	.	.	.	.	.	.	.	.	.	.	.	.	.	.	4e/	.	4cc\)	.
.	.	.	8g\J	.	8cc\J	.	.	.	8c\J	.	.	.	.	.	.	.	.	.	.	.	.	.	.	.	.	.	.	.
=48	=48	=48	=48	=48	=48	=48	=48	=48	=48	=48	=48	=48	=48	=48	=48	=48	=48	=48	=48	=48	=48	=48	=48	=48	=48	=48	=48	=48
4G\	.	.	4g\	.	4cc\	.	4ee\	.	4E\	mun-	.	.	.	.	.	.	.	.	.	.	.	.	.	.	4e/	.	(4cc\	.
!	!	!	!	!	!LO:SIC:v:s=4bn\	!	!	!	!	!	!	!	!	!	!	!	!	!	!	!	!	!	!	!	!	!	!LO:SIC:v:s=4bn\)	!
4GG/	.	.	4g\	.	4b-\	.	4dd\	.	4D\	-di	.	.	.	.	.	.	.	.	.	.	.	.	.	.	4d/	.	4b-\)	.
4r	.	.	4r	.	4r	.	4r	.	4r	.	.	.	.	.	.	.	.	.	.	.	.	.	.	.	4r	.	4r	.
=49	=49	=49	=49	=49	=49	=49	=49	=49	=49	=49	=49	=49	=49	=49	=49	=49	=49	=49	=49	=49	=49	=49	=49	=49	=49	=49	=49	=49
*	*	*	*	*	*	*	*	*	*	*	*	*	*	*	*	*	*	*	*	*	*	*	*	*	*2\right	*	*	*
!LO:TX:a:t=Tutti	!	!	!	!	!	!	!	!	!	!	!LO:DY:a:color=red	!	!	!LO:DY:a:color=red	!	!	!LO:DY:a:color=red	!	!	!	!	!LO:DY:color=red	!	!LO:DY:color=red	!LO:SIC:v:s=2.bn\	!LO:DY:color=red	!	!LO:DY:color=red:t=for
8r	.	.	8r	.	8r	.	8r	.	2.G\	Ex-	f	2.d\	Ex-	f	2.g\	Ex-	f	2.bn\	Ex-	.	4g\	f	4g\	f	2.b-\	f	2.gg\	f
!	!	!LO:DY:color=red	!LO:SIC:v:s=8bn\L|	!LO:DY:color=red	!	!LO:DY:color=red	!	!LO:DY:color=red	!	!	!	!	!	!	!	!	!	!	!	!	!	!	!	!	!	!	!	!
8G\L	.	f	8b-\L|	f	8dd\	f	8gg'\L	f	.	.	.	.	.	.	.	.	.	.	.	.	.	.	.	.	.	.	.	.
*	*	*	*tremolo	*	*tremolo	*	*	*	*	*	*	*	*	*	*	*	*	*	*	*	*	*	*	*	*	*	*	*
!	!	!	!LO:TX:a:t=''''	!	!	!	!	!	!	!	!	!	!	!	!	!	!	!	!	!	!	!	!	!	!	!	!	!
!	!	!	!LO:SIC:v:s=8b\L|	!	!LO:TX:a:t=''''	!	!	!	!	!	!	!	!	!	!	!	!	!	!	!	!	!	!	!	!	!	!	!
8G\	.	.	8b-\|	.	8dd\L|	.	8gg'\	.	.	.	.	.	.	.	.	.	.	.	.	.	4r	.	4r	.	.	.	.	.
!	!	!	!LO:SIC:v:s=8b\|	!	!	!	!	!	!	!	!	!	!	!	!	!	!	!	!	!	!	!	!	!	!	!	!	!
8G\	.	.	8b-\|	.	8dd\|	.	8gg'\	.	.	.	.	.	.	.	.	.	.	.	.	.	.	.	.	.	.	.	.	.
!	!	!	!LO:SIC:v:s=8b\|	!	!	!	!LO:SIC:v:s=(8bbn\	!	!	!	!	!	!	!	!	!	!	!	!	!	!	!	!	!	!	!	!	!
8G\	.	.	8b-\|	.	8dd\|	.	(8bb-\	.	.	.	.	.	.	.	.	.	.	.	.	.	4g\	.	4g\	.	.	.	.	.
!	!	!	!LO:SIC:v:s=8b\J|	!	!	!	!	!	!	!	!	!	!	!	!	!	!	!	!	!	!	!	!	!	!	!	!	!
8G\J	.	.	8b-\J|	.	8dd\J|	.	8gg\J)	.	.	.	.	.	.	.	.	.	.	.	.	.	.	.	.	.	.	.	.	.
*	*	*	*Xtremolo	*	*Xtremolo	*	*	*	*	*	*	*	*	*	*	*	*	*	*	*	*	*	*	*	*	*	*	*
=50	=50	=50	=50	=50	=50	=50	=50	=50	=50	=50	=50	=50	=50	=50	=50	=50	=50	=50	=50	=50	=50	=50	=50	=50	=50	=50	=50	=50
8r	.	.	8r	.	8r	.	(8gg\L	.	4A\	-au-	.	4f#X\	-au-	.	4a\	-au-	.	4cc\	-au-	.	4A/	.	4a\	.	2.cc\	.	2.ff#X\	.
8A\L	6\	.	8a\L|	.	8d/ 8ccL	.	8ff#X\J)	.	.	.	.	.	.	.	.	.	.	.	.	.	.	.	.	.	.	.	.	.
*tremolo	*	*	*tremolo	*	*tremolo	*	*	*	*	*	*	*	*	*	*	*	*	*	*	*	*	*	*	*	*	*	*	*
!	!	!	!LO:TX:a:t=''''	!	!LO:TX:b:t=''''	!	!	!	!	!	!	!	!	!	!	!	!	!	!	!	!	!	!	!	!	!	!	!
8A\	.	.	8a\|	.	8d/ 8cc|	.	4ff#\	.	4A\	-di	.	4f#\	-di	.	4a\	-di	.	4cc\	-di	.	4A/	.	4a\	.	.	.	.	.
8A\	.	.	8a\|	.	8d/ 8cc|	.	.	.	.	.	.	.	.	.	.	.	.	.	.	.	.	.	.	.	.	.	.	.
!	!	!	!	!	!	!	!	!	!	!	!	!	!	!	!	!	!	!LO:TX:t=P:problem:wykreślone 6 taktów	!	!	!	!	!	!	!	!	!	!
8A\	.	.	8a\|	.	8d/ 8cc|	.	4r	.	4r	.	.	4r	.	.	4r	.	.	4r	.	.	4r	.	4r	.	.	.	.	.
8A\J	.	.	8a\J|	.	8d/ 8ccJ|	.	.	.	.	.	.	.	.	.	.	.	.	.	.	.	.	.	.	.	.	.	.	.
*Xtremolo	*	*	*Xtremolo	*	*Xtremolo	*	*	*	*	*	*	*	*	*	*	*	*	*	*	*	*	*	*	*	*	*	*	*
!	!	!	!	!	!	!	!LO:LB:g=original	!	!	!	!	!	!	!	!	!	!	!LO:LB:g=original	!	!	!	!	!	!	!	!	!	!
=51	=51	=51	=51	=51	=51	=51	=51	=51	=51	=51	=51	=51	=51	=51	=51	=51	=51	=51	=51	=51	=51	=51	=51	=51	=51	=51	=51	=51
8r	.	.	8r	.	8r	.	8r	.	2.Bn\	nos	.	2.G/	nos	.	2.f\	nos	.	2.dd\	nos	.	4g\	.	4g\	.	2.dd\	.	2.ffn\	.
8BBn/L	.	.	8g\L|	.	8dd\	.	8ffn'\L	.	.	.	.	.	.	.	.	.	.	.	.	.	.	.	.	.	.	.	.	.
*	*	*	*tremolo	*	*tremolo	*	*	*	*	*	*	*	*	*	*	*	*	*	*	*	*	*	*	*	*	*	*	*
!	!	!	!LO:TX:a:t=''''	!	!	!	!	!	!	!	!	!	!	!	!	!	!	!	!	!	!	!	!	!	!	!	!	!
8BB/	.	.	8g\|	.	8dd\L	.	8ff'\	.	.	.	.	.	.	.	.	.	.	.	.	.	4r	.	4r	.	.	.	.	.
8BB/	.	.	8g\|	.	8dd\	.	8ff'\	.	.	.	.	.	.	.	.	.	.	.	.	.	.	.	.	.	.	.	.	.
8BB/	.	.	8g\|	.	8dd\	.	(8aa\	.	.	.	.	.	.	.	.	.	.	.	.	.	4g\	.	4g\	.	.	.	.	.
8BB/J	.	.	8g\J|	.	8dd\J	.	8ff\J)	.	.	.	.	.	.	.	.	.	.	.	.	.	.	.	.	.	.	.	.	.
*	*	*	*Xtremolo	*	*Xtremolo	*	*	*	*	*	*	*	*	*	*	*	*	*	*	*	*	*	*	*	*	*	*	*
=52	=52	=52	=52	=52	=52	=52	=52	=52	=52	=52	=52	=52	=52	=52	=52	=52	=52	=52	=52	=52	=52	=52	=52	=52	=52	=52	=52	=52
8r	.	.	8r	.	8r	.	(8ff\L	.	8c\	Do-	.	8G/	Do-	.	8f\	Do-	.	8dd\	Do-	.	4c/	.	4g\	.	2.cc\	.	2.ee\	.
8C/L	.	.	8g\|L	.	8cc\	.	8ee\J)	.	8C/	-mi-	.	8G/	-mi-	.	8e\	-mi-	.	8cc\	-mi-	.	.	.	.	.	.	.	.	.
*tremolo	*	*	*tremolo	*	*tremolo	*	*	*	*	*	*	*	*	*	*	*	*	*	*	*	*	*	*	*	*	*	*	*
!	!	!	!LO:TX:a:t=''''	!	!LO:TX:a:t=''''	!	!	!	!	!	!	!	!	!	!	!	!	!	!	!	!	!	!	!	!	!	!	!
8C/	.	.	8g\|	.	8cc\L|	.	4ee\	.	4C/	-ne	.	4G/	-ne	.	4e\	-ne	.	4cc\	-ne	.	4c/	.	4g\	.	.	.	.	.
8C/	.	.	8g\|	.	8cc\|	.	.	.	.	.	.	.	.	.	.	.	.	.	.	.	.	.	.	.	.	.	.	.
8C/	.	.	8g\|	.	8cc\|	.	4r	.	4r	.	.	4r	.	.	4r	.	.	4r	.	.	4r	.	4r	.	.	.	.	.
8C/J	.	.	8g\J|	.	8cc\J|	.	.	.	.	.	.	.	.	.	.	.	.	.	.	.	.	.	.	.	.	.	.	.
*Xtremolo	*	*	*Xtremolo	*	*Xtremolo	*	*	*	*	*	*	*	*	*	*	*	*	*	*	*	*	*	*	*	*	*	*	*
!LO:LB:g=original	!	!	!	!	!	!	!	!	!LO:LB:g=original	!	!	!	!	!	!	!	!	!	!	!	!	!	!	!	!	!	!LO:LB:g=original	!
=53	=53	=53	=53	=53	=53	=53	=53	=53	=53	=53	=53	=53	=53	=53	=53	=53	=53	=53	=53	=53	=53	=53	=53	=53	=53	=53	=53	=53
!	!	!	!	!	!	!	!	!	!	!	!	!	!	!	!	!	!	!	!	!	!LO:TX:a:t=2	!	!	!	!	!	!	!
8A\L	.	.	8f\L	.	8r	.	8r	.	(4A\	Ex-	.	(2c\	Ex-	.	4a\	E-	.	(4ff\	Ex-	.	1.r	.	1.r	.	4a/	.	4ff\	.
8A\	.	.	8f\	.	8a/	.	8ff\|	.	.	.	.	.	.	.	.	.	.	.	.	.	.	.	.	.	.	.	.	.
8G\	.	.	8e\	.	8r	.	8r	.	4G\	.	.	.	.	.	4g\	.	.	4ee\	.	.	.	.	.	.	4g/	.	4ee\	.
8G\	.	.	8e\J	.	8g/	.	8ee\|	.	.	.	.	.	.	.	.	.	.	.	.	.	.	.	.	.	.	.	.	.
!	!	!	!LO:LB:g=original	!	!	!	!	!	!	!	!	!	!	!	!	!	!	!	!	!	!	!	!	!	!LO:LB:g=original	!	!	!
8F\	.	.	8a\L	.	8r	.	8r	.	4F\)	.	.	4A\)	.	.	4f\	-x-	.	4dd\)	.	.	.	.	.	.	4ff\	.	4aa\	.
8F\J	.	.	8a\J	.	8f/	.	8aa\|	.	.	.	.	.	.	.	.	.	.	.	.	.	.	.	.	.	.	.	.	.
=54	=54	=54	=54	=54	=54	=54	=54	=54	=54	=54	=54	=54	=54	=54	=54	=54	=54	=54	=54	=54	=54	=54	=54	=54	=54	=54	=54	=54
8E\L	.	.	8g\L	.	8r	.	8r	.	4E\	-au-	.	4c\	-au-	.	4e\	-au-	.	4gg\|	-au-	.	.	.	.	.	4ee\	.	4gg\	.
8E\	.	.	8g\	.	8e/	.	8gg\|	.	.	.	.	.	.	.	.	.	.	.	.	.	.	.	.	.	.	.	.	.
8D\	.	.	8f\	.	8r	.	8r	.	4D\	-di	.	4G/	-di	.	4d\	-di	.	4bn\	-di	.	.	.	.	.	4dd\	.	4ff\	.
8D\	.	.	8f\	.	8d/	.	8bn\|	.	.	.	.	.	.	.	.	.	.	.	.	.	.	.	.	.	.	.	.	.
8C\	.	.	8g\	.	8r	.	8r	.	4C/	nos	.	4G/	nos	.	4e\	nos	.	4cc\	nos	.	.	.	.	.	4cc\	.	4ee\	.
8C\J	.	.	8g\J	.	8e/	.	8cc\|	.	.	.	.	.	.	.	.	.	.	.	.	.	.	.	.	.	.	.	.	.
=55	=55	=55	=55	=55	=55	=55	=55	=55	=55	=55	=55	=55	=55	=55	=55	=55	=55	=55	=55	=55	=55	=55	=55	=55	=55	=55	=55	=55
!LO:TX:t=P:problem:mixed beam	!	!	!	!	!LO:TUP:b:problem:klamra łukowa	!	!LO:TUP:a:problem:klamra łukowa	!	!	!	!	!	!	!	!	!	!	!	!	!	!	!	!	!	!	!	!	!
8F\L	.	.	8a\L	.	12f/L	.	12dd\L	.	(4F\	Do-	.	4A/	Do-	.	(4f\	Do-	.	(4dd\	Do-	.	4f\	.	4a\	.	4f/	.	4dd\	.
.	.	.	.	.	12g/	.	12ee\	.	.	.	.	.	.	.	.	.	.	.	.	.	.	.	.	.	.	.	.	.
8D\	.	.	8a\J	.	.	.	.	.	.	.	.	.	.	.	.	.	.	.	.	.	.	.	.	.	.	.	.	.
.	.	.	.	.	12a/J	.	12ff\J	.	.	.	.	.	.	.	.	.	.	.	.	.	.	.	.	.	.	.	.	.
*	*	*	*tremolo	*	*	*	*	*	*	*	*	*	*	*	*	*	*	*	*	*	*	*	*	*	*	*	*	*
!	!	!	!	!	!LO:LB:g=original	!	!	!	!	!	!	!	!	!	!	!	!	!	!	!	!	!	!	!	!	!	!	!
8G\	.	.	8g\L	.	(8g/L	.	(8ee\L	.	4G\)	.	.	4G/	.	.	4e\)	.	.	4cc\)	.	.	4g\	.	4g\	.	4e/	.	4cc\	.
8G\	.	.	8g\	.	8e/)	.	8cc\)	.	.	.	.	.	.	.	.	.	.	.	.	.	.	.	.	.	.	.	.	.
!	!	!	!	!	!	!	!LO:SIC:v:s=(8bn\	!	!	!	!	!	!	!	!	!	!	!	!	!	!	!	!	!	!	!	!LO:SIC:v:s=4bn\	!
8GG/	.	.	8g\	.	(8d/	.	(8b-\	.	4GG/	-mi-	.	4G/	-mi-	.	4d\	-mi-	.	4bn\	-mi-	.	4g\	.	4g\	.	4d/	.	4b-\	.
8GG/J	.	.	8g\J	.	8f/J)	.	8dd\J)	.	.	.	.	.	.	.	.	.	.	.	.	.	.	.	.	.	.	.	.	.
*	*	*	*Xtremolo	*	*	*	*	*	*	*	*	*	*	*	*	*	*	*	*	*	*	*	*	*	*	*	*	*
=56	=56	=56	=56	=56	=56	=56	=56	=56	=56	=56	=56	=56	=56	=56	=56	=56	=56	=56	=56	=56	=56	=56	=56	=56	=56	=56	=56	=56
4C/	.	.	4g\	.	4e/	.	4cc\	.	4C/	-ne	.	4G/	-ne	.	4e\	-ne	.	4cc\	-ne	.	2c/	.	2g\	.	4e/	.	4cc\	.
8c\L	.	.	8r	.	4r	.	4r	.	4r	.	.	4r	.	.	4r	.	.	4r	.	.	.	.	.	.	4r	.	4r	.
8B-X\	.	.	8g\L	.	.	.	.	.	.	.	.	.	.	.	.	.	.	.	.	.	.	.	.	.	.	.	.	.
8A\	.	.	8f\	.	4r	.	4r	.	4r	.	.	4r	.	.	4r	.	.	4r	.	.	4r	.	4r	.	4r	.	4r	.
8G\J	.	.	8e\J	.	.	.	.	.	.	.	.	.	.	.	.	.	.	.	.	.	.	.	.	.	.	.	.	.
!	!	!	!	!	!	!	!	!	!	!	!	!	!	!	!LO:LB:g=original	!	!	!	!	!	!LO:LB:g=original	!	!LO:LB:g=original	!	!	!	!	!
=57	=57	=57	=57	=57	=57	=57	=57	=57	=57	=57	=57	=57	=57	=57	=57	=57	=57	=57	=57	=57	=57	=57	=57	=57	=57	=57	=57	=57
*tremolo	*	*	*tremolo	*	*tremolo	*	*	*	*	*	*	*	*	*	*	*	*	*	*	*	*	*	*	*	*	*	*	*
!LO:TX:b:i:t=Tutti:color=red	!	!	!LO:TX:b:i:t=Tutti:color=red	!	!LO:TX:b:i:t=Tutti:color=red	!	!LO:TX:b:i:t=Tutti:color=red	!	!LO:TX:a:i:t=Tutti:color=red	!	!	!	!	!LO:DY:a:color=red:t=forto	!	!	!LO:DY:a:color=red	!	!	!LO:DY:a:color=red	!	!LO:DY:color=red	!	!LO:DY:color=red:t=forto	!LO:TX:b:i:t=Tutti:color=red	!	!	!LO:DY:color=red
8F\L	.	.	8f\L	.	8a/L	.	4cc\	.	2F\	A-	.	2c\	A-	f	2a\	A-	f	(4.cc\	A-	f	2f\	f	2a\	f	2a/	.	2cc\	f
8F\	.	.	8f\	.	8a/	.	.	.	.	.	.	.	.	.	.	.	.	.	.	.	.	.	.	.	.	.	.	.
8F\	.	.	8f\	.	8a/	.	(8cc\L	.	.	.	.	.	.	.	.	.	.	.	.	.	.	.	.	.	.	.	.	.
8F\J	.	.	8f\J	.	8a/J	.	8dd\J)	.	.	.	.	.	.	.	.	.	.	8dd\)	.	.	.	.	.	.	.	.	.	.
*Xtremolo	*	*	*Xtremolo	*	*Xtremolo	*	*	*	*	*	*	*	*	*	*	*	*	*	*	*	*	*	*	*	*	*	*	*
8G\L	.	.	8g\L	.	8b-X/L	.	(8e/L	.	4G\	-gnus	.	4c\	-gnus	.	4b-X\	-gnus	.	8e/L	-gnus	.	4g\	.	4b-\	.	4g/	.	4b-\	.
8G\J	.	.	8g\J	.	8b-/J	.	8g/J)	.	.	.	.	.	.	.	.	.	.	8g/J	.	.	.	.	.	.	.	.	.	.
=58	=58	=58	=58	=58	=58	=58	=58	=58	=58	=58	=58	=58	=58	=58	=58	=58	=58	=58	=58	=58	=58	=58	=58	=58	=58	=58	=58	=58
*tremolo	*	*	*tremolo	*	*tremolo	*	*	*	*	*	*	*	*	*	*	*	*	*	*	*	*	*	*	*	*	*	*	*
!	!	!	!	!	!	!	!	!	!	!	!	!	!	!	!LO:TX:a:t=''	!	!	!	!	!	!	!	!	!	!	!	!	!
8A\L	.	.	8a\L	.	8cc\L	.	(8g/L	.	4A\	Dei	.	4c\	De-	.	2a\	Dei	.	8g/L	De-	.	4f\	.	4a\	.	8g/L	.	8b-/L	.
8A\	.	.	8a\	.	8cc\	.	8f/J)	.	.	.	.	.	.	.	.	.	.	8f/J	.	.	.	.	.	.	8f/J	.	8a/J	.
8A\	.	.	8a\	.	8cc\	.	4f/	.	4F\	.	.	4c\	-i	.	.	.	.	4f/	-i	.	4r	.	4r	.	4f/	.	4a/	.
8A\J	.	.	8a\J	.	8cc\	.	.	.	.	.	.	.	.	.	.	.	.	.	.	.	.	.	.	.	.	.	.	.
*Xtremolo	*	*	*Xtremolo	*	*	*	*	*	*	*	*	*	*	*	*	*	*	*	*	*	*	*	*	*	*	*	*	*
!	!	!	!	!	!	!	!	!	!	!	!	!LO:LB:g=original	!	!	!	!	!	!	!	!	!	!	!	!	!	!	!	!
8E\L	.	.	8e\L	.	8cc\	.	(8g/L	.	4G\	qui	.	4c\	qui	.	4e\	qui	.	8g\L	qui	.	4c/	.	4g\	.	4e/	.	8g/L	.
8E\J	.	.	8e\J	.	8cc\J	.	8b-X/J)	.	.	.	.	.	.	.	.	.	.	8b-X\J	.	.	.	.	.	.	.	.	8b-/J	.
*	*	*	*	*	*Xtremolo	*	*	*	*	*	*	*	*	*	*	*	*	*	*	*	*	*	*	*	*	*	*	*
=59	=59	=59	=59	=59	=59	=59	=59	=59	=59	=59	=59	=59	=59	=59	=59	=59	=59	=59	=59	=59	=59	=59	=59	=59	=59	=59	=59	=59
8F\L	.	.	8f\L	.	8cc\L	.	(16b-/LL	.	4F\	tol-	.	4c\	tol-	.	4f\	tol-	.	16b-\LL	tol-	.	4f\	.	4a\	.	4f/	.	4a/	.
.	.	.	.	.	.	.	16a/	.	.	.	.	.	.	.	.	.	.	16a\	.	.	.	.	.	.	.	.	.	.
8F\	.	.	8f\	.	8cc\J	.	16g/	.	.	.	.	.	.	.	.	.	.	16g\	.	.	.	.	.	.	.	.	.	.
.	.	.	.	.	.	.	16f/JJ)	.	.	.	.	.	.	.	.	.	.	16f\JJ	.	.	.	.	.	.	.	.	.	.
!	!	!	!	!	!	!	!	!	!	!	!	!	!	!	!	!	!	!LO:LB:g=original	!	!	!	!	!	!	!	!	!	!
8A\	.	.	8a\	.	8dd\L|	.	8ff|\L	.	8A\	-lis	.	8f\	-lis	.	8dd\	-lis	.	8ff\	-lis	.	4r	.	4r	.	4r	.	4r	.
8A\	.	.	8a\	.	8cc\|	.	8ee|\	.	8A\	pec-	.	8f\	Pec-	.	8cc\	Pec-	.	8ee\	pec-	.	.	.	.	.	.	.	.	.
8B-\	.	.	8b-\	.	8b-\|	.	8dd|\	.	8B-\	-ca-	.	8f\	-ca-	.	8b-\	-ca-	.	8dd\	-ca-	.	4r	.	4r	.	8r	.	8r	.
8B-\J	.	.	8b-\J	.	8a\J|	.	8cc|\J	.	8B-\	-ta	.	8f\	-ta	.	8a\	-ta	.	8cc\	-ta	.	.	.	.	.	8a/	.	8cc\	.
!	!	!	!	!	!	!	!LO:LB:g=original	!	!	!	!	!	!	!	!	!	!	!	!	!	!	!	!	!	!	!	!	!
=60	=60	=60	=60	=60	=60	=60	=60	=60	=60	=60	=60	=60	=60	=60	=60	=60	=60	=60	=60	=60	=60	=60	=60	=60	=60	=60	=60	=60
!LO:TX:t=P:problem:mixed beam	!	!	!LO:TX:t=P:problem:mixed beam	!	!LO:N:vis=4.	!	!	!	!	!	!	!	!	!	!	!	!	!	!	!	!	!	!	!	!	!	!	!
8c\L	.	.	8cc\L	.	4a/	.	4cc\	.	4c\	mun-	.	(4f\	mun-	.	4a\	mun-	.	4cc\	mun-	.	2c/	.	4a\	.	4a/	.	4cc\	.
8c\	.	.	8cc\	.	.	.	.	.	.	.	.	.	.	.	.	.	.	.	.	.	.	.	.	.	.	.	.	.
.	.	.	.	.	.	.	16qqcc/	.	.	.	.	.	.	.	16qqa/	.	.	16qqcc/	.	.	.	.	.	.	.	.	.	.
!	!	!	!	!	!	!	!LO:TX:a:t=t&colon;	!	!	!	!	!	!	!	!	!	!	!	!	!	!	!	!	!	!	!	!	!
8C/	.	.	8c/	.	(8g/L	.	8b-\L	.	4C/	.	.	4e\)	.	.	8g\L	.	.	8b-\L	.	.	.	.	4g\	.	4g/	.	4b-T\	.
8C/J	.	.	8c/J	.	16f/L	.	(16a\L	.	.	.	.	.	.	.	16f\L	.	.	16a\L	.	.	.	.	.	.	.	.	.	.
.	.	.	.	.	16g/JJ)	.	16b-\JJ)	.	.	.	.	.	.	.	16g\JJ	.	.	16b-\JJ	.	.	.	.	.	.	.	.	.	.
4F\	.	.	4c/	.	4f/	.	4a/	.	4F\	-di	.	4f\	-di	.	4f\	-di	.	4a\	-di	.	4A/	.	4f\	.	4f/	.	4a\	.
=61	=61	=61	=61	=61	=61	=61	=61	=61	=61	=61	=61	=61	=61	=61	=61	=61	=61	=61	=61	=61	=61	=61	=61	=61	=61	=61	=61	=61
*tremolo	*	*	*tremolo	*	*tremolo	*	*	*	*	*	*	*	*	*	*	*	*	*	*	*	*	*	*	*	*	*	*	*
!	!	!	!	!	!	!	!	!	!	!	!	!	!	!	!	!	!	!	!	!	!LO:TX:a:t=2	!	!	!	!	!	!	!
8B-\L	.	.	8B-/L	.	8f/L	.	(4dd\	.	4B-\	qui	.	4d\	qui	.	4f\	qui	.	4dd\	qui	.	1.r	.	1.r	.	2.b-/	.	2.dd\	.
8B-\	.	.	8B-/	.	8f/	.	.	.	.	.	.	.	.	.	.	.	.	.	.	.	.	.	.	.	.	.	.	.
8B-\	.	.	8B-/	.	8f/	.	4b-\)	.	4B-\	tol-	.	4d\	tol-	.	4f\	tol-	.	4b-\	tol-	.	.	.	.	.	.	.	.	.
8B-\	.	.	8B-/	.	8f/	.	.	.	.	.	.	.	.	.	.	.	.	.	.	.	.	.	.	.	.	.	.	.
.	.	.	.	.	.	.	16qqee/LL	.	.	.	.	.	.	.	.	.	.	.	.	.	.	.	.	.	.	.	.	.
.	.	.	.	.	.	.	16qqgg/JJ	.	.	.	.	.	.	.	.	.	.	.	.	.	.	.	.	.	.	.	.	.
8B-\	.	.	8B-/	.	8f/	.	4ff\	.	4B-\	-lis	.	4d\	-lis	.	4f\	-lis	.	4ff\	-lis	.	.	.	.	.	.	.	.	.
8B-\J	.	.	8B-/J	.	8f/J	.	.	.	.	.	.	.	.	.	.	.	.	.	.	.	.	.	.	.	.	.	.	.
!	!	!	!LO:LB:g=original	!	!	!	!	!	!LO:LB:g=original	!	!	!	!	!	!	!	!	!	!	!	!	!	!	!	!	!	!	!
=62	=62	=62	=62	=62	=62	=62	=62	=62	=62	=62	=62	=62	=62	=62	=62	=62	=62	=62	=62	=62	=62	=62	=62	=62	=62	=62	=62	=62
8A\L	.	.	8A/L	.	8f/L	.	(4cc\	.	4A\	pec-	.	4c\	pec-	.	4f\	pec-	.	4cc\	pec-	.	.	.	.	.	2.a/	.	2.cc\	.
8A\	.	.	8A/	.	8f/	.	.	.	.	.	.	.	.	.	.	.	.	.	.	.	.	.	.	.	.	.	.	.
8A\	.	.	8A/	.	8f/	.	4a\)	.	4A\	-ca-	.	4c\	-ca-	.	4f\	-ca-	.	4a\	-ca-	.	.	.	.	.	.	.	.	.
8A\	.	.	8A/	.	8f/	.	.	.	.	.	.	.	.	.	.	.	.	.	.	.	.	.	.	.	.	.	.	.
.	.	.	.	.	.	.	16qqee/LL	.	.	.	.	.	.	.	.	.	.	.	.	.	.	.	.	.	.	.	.	.
.	.	.	.	.	.	.	16qqgg/JJ	.	.	.	.	.	.	.	.	.	.	.	.	.	.	.	.	.	.	.	.	.
8A\	.	.	8A/	.	8f/	.	4ff\	.	4A\	-ta	.	4c\	-ta	.	4f\	-ta	.	4ff\	-ta	.	.	.	.	.	.	.	.	.
8A\J	.	.	8A/J	.	8f/J	.	.	.	.	.	.	.	.	.	.	.	.	.	.	.	.	.	.	.	.	.	.	.
*Xtremolo	*	*	*	*	*	*	*	*	*	*	*	*	*	*	*	*	*	*	*	*	*	*	*	*	*	*	*	*
=63	=63	=63	=63	=63	=63	=63	=63	=63	=63	=63	=63	=63	=63	=63	=63	=63	=63	=63	=63	=63	=63	=63	=63	=63	=63	=63	=63	=63
*	*	*	*	*	*	*	*	*	*	*ij	*	*	*ij	*	*	*	*	*	*	*	*	*	*	*	*	*	*	*
8G\L	.	.	8G/L	.	8e/L	.	(16cc\LL	.	4G\	pec-	.	4e\	pec-	.	4g\	pec-	.	(16cc\LL	pec-	.	2c/	.	2g\	.	2g/	.	2b-/	.
.	.	.	.	.	.	.	16b-\	.	.	.	.	.	.	.	.	.	.	16b-\	.	.	.	.	.	.	.	.	.	.
8G\	.	.	8G/	.	8e/	.	16a\	.	.	.	.	.	.	.	.	.	.	16a\	.	.	.	.	.	.	.	.	.	.
.	.	.	.	.	.	.	16b-\JJ)	.	.	.	.	.	.	.	.	.	.	16b-\JJ)	.	.	.	.	.	.	.	.	.	.
8E\	.	.	8G/	.	8e/	.	4b-/	.	4E\	-ca-	.	4c\	-ca-	.	4g\	-ca-	.	4b-\	-ca-	.	.	.	.	.	.	.	.	.
8E\	.	.	8G/J	.	8e/J	.	.	.	.	.	.	.	.	.	.	.	.	.	.	.	.	.	.	.	.	.	.	.
*	*	*	*Xtremolo	*	*Xtremolo	*	*	*	*	*	*	*	*	*	*	*	*	*	*	*	*	*	*	*	*	*	*	*
8F\	.	.	8c/L	.	8f/L	.	4a/	.	4F\	-ta	.	4c\	-ta	.	4f\	-ta	.	4a\	-ta	.	4f\	.	4a\	.	4f/	.	4a/	.
*	*	*	*	*	*	*	*	*	*	*Xij	*	*	*Xij	*	*	*	*	*	*	*	*	*	*	*	*	*	*	*
8F\J	.	.	8c/J	.	8f/J	.	.	.	.	.	.	.	.	.	.	.	.	.	.	.	.	.	.	.	.	.	.	.
=64	=64	=64	=64	=64	=64	=64	=64	=64	=64	=64	=64	=64	=64	=64	=64	=64	=64	=64	=64	=64	=64	=64	=64	=64	=64	=64	=64	=64
!	!	!	!	!	!	!	!LO:TX:a:t=t&colon;	!	!	!	!	!	!	!	!	!	!	!	!	!	!	!	!	!	!	!	!	!
4c\	.	.	4c/	.	(8.f/L	.	(8.a/L	.	4c\	mun-	.	4c\	mun-	.	8.f\L	mun-	.	8.a\L	mun-	.	4f\	.	4a\	.	4f/	.	4a/	.
.	.	.	.	.	32e/LL	.	32g/LL	.	.	.	.	.	.	.	32e\LL	.	.	32g\LL	.	.	.	.	.	.	.	.	.	.
.	.	.	.	.	32f/JJJ)	.	32a/JJJ)	.	.	.	.	.	.	.	32f\JJJ	.	.	32a\JJJ	.	.	.	.	.	.	.	.	.	.
!	!	!	!	!	!LO:LB:g=original	!	!	!	!	!	!	!	!	!	!	!	!	!	!	!	!	!	!	!	!	!	!	!
4C/	.	.	4c/	.	4e/	.	4g/	.	4C/	-di	.	4c\	-di	.	4e\	-di	.	4g\	-di	.	4c/	.	4g\	.	4e/	.	4g/	.
!LO:LB:g=original	!	!	!	!	!	!	!	!	!	!	!	!	!	!	!LO:TX:t=P:problem:brak pauzy 4r	!	!	!	!	!	!	!	!	!	!	!	!	!
4r	.	.	8cc\L	.	4r	.	4r	.	4r	.	.	4r	.	.	4ryy	.	.	4r	.	.	8c/L	.	8c/L	.	4r	.	4r	.
.	.	.	8cc\J	.	.	.	.	.	.	.	.	.	.	.	.	.	.	.	.	.	8c/J	.	8c/J	.	.	.	.	.
!	!	!	!	!	!	!	!	!	!	!	!	!	!	!	!LO:LB:g=original	!	!	!	!	!	!	!	!	!	!	!	!	!
=65	=65	=65	=65	=65	=65	=65	=65	=65	=65	=65	=65	=65	=65	=65	=65	=65	=65	=65	=65	=65	=65	=65	=65	=65	=65	=65	=65	=65
!	!	!LO:DY:color=red:t=p&colon;	!	!LO:DY:color=red	!	!	!	!	!	!	!LO:DY:a:color=red	!	!	!LO:DY:a:color=red	!	!	!LO:DY:a:color=red	!	!	!LO:DY:a:color=red	!	!LO:DY:color=red	!	!LO:DY:color=red	!	!LO:DY:color=red:t=piano	!	!LO:DY:color=red:t=pia
4C/	.	p	8cc\	p	8r	.	8r	.	2.C/	Mi-	p	2.B-\	Mi-	p	2.g\	Mi-	p	2.ee\	Mi-	p	2.c/	p	2.g\	p	2.g/	p	2.ee\	p
!	!	!	!	!	!	!LO:DY:color=red	!	!LO:DY:color=red	!	!	!	!	!	!	!	!	!	!	!	!	!	!	!	!	!	!	!	!
.	.	.	4cc\	.	8gg\L|	p	8bb-\L|	p	.	.	.	.	.	.	.	.	.	.	.	.	.	.	.	.	.	.	.	.
4E/	.	.	.	.	8ee\|	.	8gg\|	.	.	.	.	.	.	.	.	.	.	.	.	.	.	.	.	.	.	.	.	.
.	.	.	4cc\	.	8cc\|	.	8ee\|	.	.	.	.	.	.	.	.	.	.	.	.	.	.	.	.	.	.	.	.	.
4C/	.	.	.	.	(8b-\	.	(8cc\	.	.	.	.	.	.	.	.	.	.	.	.	.	.	.	.	.	.	.	.	.
.	.	.	8cc\	.	8g\J)	.	8b-\J)	.	.	.	.	.	.	.	.	.	.	.	.	.	.	.	.	.	.	.	.	.
!	!	!	!	!	!	!	!	!	!	!	!	!	!	!	!	!	!	!	!	!	!	!	!	!	!	!	!LO:LB:g=original	!
=66	=66	=66	=66	=66	=66	=66	=66	=66	=66	=66	=66	=66	=66	=66	=66	=66	=66	=66	=66	=66	=66	=66	=66	=66	=66	=66	=66	=66
4F\	.	.	8cc\	.	8r	.	8r	.	2.F\	-se-	.	2.c\	-se-	.	2.a\	-se-	.	2.ff\	-se-	.	2.f\	.	2.a\	.	2.a/	.	2.ff\	.
.	.	.	4cc\	.	8aa\L|	.	8ccc\L|	.	.	.	.	.	.	.	.	.	.	.	.	.	.	.	.	.	.	.	.	.
4A\	.	.	.	.	8ff\|	.	8aa\|	.	.	.	.	.	.	.	.	.	.	.	.	.	.	.	.	.	.	.	.	.
.	.	.	4cc\	.	8cc\|	.	8ff\|	.	.	.	.	.	.	.	.	.	.	.	.	.	.	.	.	.	.	.	.	.
4F\	.	.	.	.	(8a\	.	(8cc\	.	.	.	.	.	.	.	.	.	.	.	.	.	.	.	.	.	.	.	.	.
.	.	.	8cc\	.	8f\J)	.	8a\J)	.	.	.	.	.	.	.	.	.	.	.	.	.	.	.	.	.	.	.	.	.
!	!	!	!	!	!	!	!	!	!	!	!	!LO:LB:g=original	!	!	!	!	!	!LO:LB:g=original	!	!	!	!	!	!	!LO:LB:g=original	!	!	!
=67	=67	=67	=67	=67	=67	=67	=67	=67	=67	=67	=67	=67	=67	=67	=67	=67	=67	=67	=67	=67	=67	=67	=67	=67	=67	=67	=67	=67
4C/	.	.	8cc\	.	8r	.	8r	.	2.C/	-re-	.	2.B-\	-re-	.	2.g\	-re-	.	2.ee\	-re-	.	2.c/	.	2.g\	.	2.g/	.	2.ee\	.
.	.	.	4cc\	.	8gg\L|	.	8bb-\L|	.	.	.	.	.	.	.	.	.	.	.	.	.	.	.	.	.	.	.	.	.
4E/	.	.	.	.	8ee\|	.	8gg\|	.	.	.	.	.	.	.	.	.	.	.	.	.	.	.	.	.	.	.	.	.
.	.	.	4cc\	.	8cc\|	.	8ee\|	.	.	.	.	.	.	.	.	.	.	.	.	.	.	.	.	.	.	.	.	.
4C/	.	.	.	.	(8b-\	.	(8cc\	.	.	.	.	.	.	.	.	.	.	.	.	.	.	.	.	.	.	.	.	.
.	.	.	8cc\	.	8g\J)	.	8b-\J)	.	.	.	.	.	.	.	.	.	.	.	.	.	.	.	.	.	.	.	.	.
=68	=68	=68	=68	=68	=68	=68	=68	=68	=68	=68	=68	=68	=68	=68	=68	=68	=68	=68	=68	=68	=68	=68	=68	=68	=68	=68	=68	=68
4F\	.	.	8cc\	.	8r	.	8r	.	2.F\	-re	.	2.c\	-re	.	2.a\	-re	.	2.ff\	-re	.	2A/	.	2f\	.	2.a/	.	2.ff\	.
.	.	.	4cc\	.	8aa\L|	.	8ccc\L|	.	.	.	.	.	.	.	.	.	.	.	.	.	.	.	.	.	.	.	.	.
4A\	.	.	.	.	8ff\|	.	8aa\|	.	.	.	.	.	.	.	.	.	.	.	.	.	.	.	.	.	.	.	.	.
.	.	.	4cc\	.	8cc\|	.	8ff\|	.	.	.	.	.	.	.	.	.	.	.	.	.	.	.	.	.	.	.	.	.
4F\	.	.	.	.	(8a\	.	(8cc\	.	.	.	.	.	.	.	.	.	.	.	.	.	4r	.	4r	.	.	.	.	.
.	.	.	8cc\	.	8cc\J)	.	8ff\J)	.	.	.	.	.	.	.	.	.	.	.	.	.	.	.	.	.	.	.	.	.
=69	=69	=69	=69	=69	=69	=69	=69	=69	=69	=69	=69	=69	=69	=69	=69	=69	=69	=69	=69	=69	=69	=69	=69	=69	=69	=69	=69	=69
.	.	.	.	.	.	.	16qqee/	.	.	.	.	.	.	.	.	.	.	16qqee/	.	.	.	.	.	.	.	.	.	.
*	*	*	*	*	*	*	*	*	*	*	*	*	*	*	*	*	*	*Xtuplet	*	*	*	*	*	*	*	*	*	*
!LO:TX:t=P:problem:mixed beam	!	!LO:DY:color=red:t=for	!	!LO:DY:color=red	!LO:TUP:b:problem:klamra łukowa	!LO:DY:color=red	!LO:TUP:a:problem:klamra łukowa	!LO:DY:color=red	!	!	!LO:DY:a:color=red	!	!	!	!LO:TUP:a:problem:klamra łukowa	!	!	!	!	!	!	!	!	!	!	!	!	!LO:DY:color=red
8B-\L	.	f	4dd\	f	12b-/L	f	12dd\L	f	(4B-\	no-	f	(4d\	no-	f	12b-\L	no-	.	12dd\L	no-	.	4r	.	4r	.	4b-/	.	8dd\L	f
.	.	.	.	.	12a/	.	12cc\	.	.	.	.	.	.	.	12a\	.	.	12cc\	.	.	.	.	.	.	.	.	.	.
8B-\	.	.	.	.	.	.	.	.	.	.	.	.	.	.	.	.	.	.	.	.	.	.	.	.	.	.	8gg\J	.
.	.	.	.	.	12g/J	.	12b-\J	.	.	.	.	.	.	.	12g\J	.	.	12b-\J	.	.	.	.	.	.	.	.	.	.
!	!	!	!	!	!	!	!	!	!	!	!	!	!	!	!	!	!	!	!	!	!	!LO:DY:color=red	!	!LO:DY:color=red	!	!	!	!
8c\	.	.	4cc\	.	4f/	.	4a/	.	4c\)	.	.	4c\)	-bis	.	4f\	-bis	.	4a\	-bis	.	4f\	f	4a\	f	4a/	.	4ff\	.
8c\	.	.	.	.	.	.	.	.	.	.	.	.	.	.	.	.	.	.	.	.	.	.	.	.	.	.	.	.
8C/	.	.	4cc\	.	4e/	.	4g/	.	4C/	-bis	.	4c\	.	.	4e\	.	.	4g\	.	.	4c/	.	4g\	.	4g/	.	4ee\	.
8C/J	.	.	.	.	.	.	.	.	.	.	.	.	.	.	.	.	.	.	.	.	.	.	.	.	.	.	.	.
!	!	!	!	!	!	!	!LO:LB:g=original	!	!	!	!	!	!	!	!	!	!	!	!	!	!	!	!	!	!	!	!	!
=70	=70	=70	=70	=70	=70	=70	=70	=70	=70	=70	=70	=70	=70	=70	=70	=70	=70	=70	=70	=70	=70	=70	=70	=70	=70	=70	=70	=70
!LO:TX:a:t=4	!	!	!	!LO:DY:a:color=red:t=p dolce	!	!LO:DY:color=red:t=piano dolce	!	!LO:DY:color=red:t=piano Dolce	!LO:TX:a:t=4	!	!	!LO:TX:a:t=4	!	!	!LO:TX:a:t=4	!	!	!LO:TX:a:t=4	!	!	!LO:TX:a:t=4	!	!LO:TX:a:t=4	!	!LO:TX:a:t=4	!	!LO:TX:a:t=4	!
0.r	.	.	8A/L|	p	8f/L	p	8a/L|	p	0.r	.	.	0.r	.	.	0.r	.	.	0.r	.	.	0.r	.	0.r	.	0.r	.	0.r	.
.	.	.	8A/J|	.	8f/J	.	8a/J|	.	.	.	.	.	.	.	.	.	.	.	.	.	.	.	.	.	.	.	.	.
!	!	!	!LO:LB:g=original	!	!	!	!	!	!	!	!	!	!	!	!	!	!	!	!	!	!	!	!	!	!	!	!	!
.	.	.	16qqc/	.	16qqa/	.	16qqcc/	.	.	.	.	.	.	.	.	.	.	.	.	.	.	.	.	.	.	.	.	.
!	!	!	!	!	!	!	!LO:TX:a:t=t&colon;	!	!	!	!	!	!	!	!	!	!	!	!	!	!	!	!	!	!	!	!	!
.	.	.	8B-/L	.	8g/L	.	8b-\L	.	.	.	.	.	.	.	.	.	.	.	.	.	.	.	.	.	.	.	.	.
.	.	.	16A/L	.	(16f/L	.	(16a\L	.	.	.	.	.	.	.	.	.	.	.	.	.	.	.	.	.	.	.	.	.
.	.	.	16B-/JJ	.	16g/JJ)	.	16b-\JJ)	.	.	.	.	.	.	.	.	.	.	.	.	.	.	.	.	.	.	.	.	.
.	.	.	4c/	.	4a/	.	4cc\	.	.	.	.	.	.	.	.	.	.	.	.	.	.	.	.	.	.	.	.	.
=71	=71	=71	=71	=71	=71	=71	=71	=71	=71	=71	=71	=71	=71	=71	=71	=71	=71	=71	=71	=71	=71	=71	=71	=71	=71	=71	=71	=71
.	.	.	8A/L|	.	8f/L|	.	8a/L|	.	.	.	.	.	.	.	.	.	.	.	.	.	.	.	.	.	.	.	.	.
.	.	.	8A/J|	.	8f/J|	.	8a/J|	.	.	.	.	.	.	.	.	.	.	.	.	.	.	.	.	.	.	.	.	.
!	!	!	!	!	!LO:LB:g=original	!	!	!	!	!	!	!	!	!	!	!	!	!	!	!	!	!	!	!	!	!	!	!
.	.	.	16qqc/	.	16qqa/	.	16qqcc/	.	.	.	.	.	.	.	.	.	.	.	.	.	.	.	.	.	.	.	.	.
!	!	!	!	!	!	!	!LO:TX:a:t=t&colon;	!	!	!	!	!	!	!	!	!	!	!	!	!	!	!	!	!	!	!	!	!
.	.	.	8B-/L	.	8g/L	.	8b-\L	.	.	.	.	.	.	.	.	.	.	.	.	.	.	.	.	.	.	.	.	.
.	.	.	16A/L	.	(16f/L	.	(16a\L	.	.	.	.	.	.	.	.	.	.	.	.	.	.	.	.	.	.	.	.	.
.	.	.	16B-/JJ	.	16g/JJ)	.	16b-\JJ)	.	.	.	.	.	.	.	.	.	.	.	.	.	.	.	.	.	.	.	.	.
.	.	.	4c/|	.	4a/	.	4cc\	.	.	.	.	.	.	.	.	.	.	.	.	.	.	.	.	.	.	.	.	.
=72	=72	=72	=72	=72	=72	=72	=72	=72	=72	=72	=72	=72	=72	=72	=72	=72	=72	=72	=72	=72	=72	=72	=72	=72	=72	=72	=72	=72
.	.	.	(16d\LL	.	(16b-\LL	.	(16dd\LL	.	.	.	.	.	.	.	.	.	.	.	.	.	.	.	.	.	.	.	.	.
.	.	.	16c\	.	16a\	.	16cc\	.	.	.	.	.	.	.	.	.	.	.	.	.	.	.	.	.	.	.	.	.
.	.	.	16d\	.	16b-\	.	16dd\	.	.	.	.	.	.	.	.	.	.	.	.	.	.	.	.	.	.	.	.	.
.	.	.	16e\JJ)	.	16cc\JJ)	.	16ee\JJ)	.	.	.	.	.	.	.	.	.	.	.	.	.	.	.	.	.	.	.	.	.
.	.	.	8f\L|	.	8dd\L|	.	8ff\L|	.	.	.	.	.	.	.	.	.	.	.	.	.	.	.	.	.	.	.	.	.
.	.	.	8e\|	.	8cc\|	.	8ee\|	.	.	.	.	.	.	.	.	.	.	.	.	.	.	.	.	.	.	.	.	.
.	.	.	8d\|	.	8b-\|	.	8dd\|	.	.	.	.	.	.	.	.	.	.	.	.	.	.	.	.	.	.	.	.	.
.	.	.	8c\J|	.	8a\J|	.	8cc\J|	.	.	.	.	.	.	.	.	.	.	.	.	.	.	.	.	.	.	.	.	.
=73	=73	=73	=73	=73	=73	=73	=73	=73	=73	=73	=73	=73	=73	=73	=73	=73	=73	=73	=73	=73	=73	=73	=73	=73	=73	=73	=73	=73
.	.	.	(8c/L	.	(8a/L	.	(8cc\L	.	.	.	.	.	.	.	.	.	.	.	.	.	.	.	.	.	.	.	.	.
.	.	.	8B-/J)	.	8g/)	.	8b-\)	.	.	.	.	.	.	.	.	.	.	.	.	.	.	.	.	.	.	.	.	.
.	.	.	8A/L|	.	8f/|	.	8a\|	.	.	.	.	.	.	.	.	.	.	.	.	.	.	.	.	.	.	.	.	.
.	.	.	8G/|	.	8e/|	.	8g\|	.	.	.	.	.	.	.	.	.	.	.	.	.	.	.	.	.	.	.	.	.
.	.	.	8A/|	.	8f/|	.	8a\|	.	.	.	.	.	.	.	.	.	.	.	.	.	.	.	.	.	.	.	.	.
.	.	.	8B-/J|	.	8g/J|	.	8b-\J|	.	.	.	.	.	.	.	.	.	.	.	.	.	.	.	.	.	.	.	.	.
!	!	!	!	!	!	!	!	!	!	!	!	!	!	!	!	!	!	!	!	!	!	!	!LO:LB:g=original	!	!	!	!	!
=74	=74	=74	=74	=74	=74	=74	=74	=74	=74	=74	=74	=74	=74	=74	=74	=74	=74	=74	=74	=74	=74	=74	=74	=74	=74	=74	=74	=74
!	!	!	!	!LO:DY:color=red	!	!LO:DY:color=red:t=forto	!	!LO:DY:color=red:t=forto	!	!	!	!	!	!	!	!	!	!	!	!	!	!LO:DY:color=red	!	!	!	!LO:DY:color=red	!	!LO:DY:color=red
4F\	.	.	8c\L 8f|	f	8a/L|	f	8cc\L|	f	(4F\	Chri-	.	(4f\	Chri-	.	(4a\	Chri-	.	4cc\	Chris-	.	4f\	f	4a\	.	4a/	f	4cc\	f
.	.	.	8c\ 8f|	.	8a/|	.	8cc\J|	.	.	.	.	.	.	.	.	.	.	.	.	.	.	.	.	.	.	.	.	.
4G\	.	.	8c\ 8e|	.	8g/|	.	8b-\L|	.	4G\)	.	.	4e\)	.	.	4g\)	.	.	8.b-\L	.	.	4c/	.	4g\	.	4g/	.	4b-\	.
!	!	!	!	!	!	!	!LO:TUP:a:problem:klamra łukowa	!	!	!	!	!	!	!	!	!	!	!	!	!	!	!	!	!	!	!	!	!
.	.	.	8c\ 8e|	.	8g/|	.	24b-\L	.	.	.	.	.	.	.	.	.	.	.	.	.	.	.	.	.	.	.	.	.
.	.	.	.	.	.	.	24cc\	.	.	.	.	.	.	.	.	.	.	.	.	.	.	.	.	.	.	.	.	.
.	.	.	.	.	.	.	.	.	.	.	.	.	.	.	.	.	.	32cc\LL	.	.	.	.	.	.	.	.	.	.
.	.	.	.	.	.	.	24b-\JJ	.	.	.	.	.	.	.	.	.	.	.	.	.	.	.	.	.	.	.	.	.
.	.	.	.	.	.	.	.	.	.	.	.	.	.	.	.	.	.	32b-\JJJ	.	.	.	.	.	.	.	.	.	.
4C/	.	.	8c\|	.	8e/|	.	8g/L|	.	4C/	-ste	.	4c\	-ste	.	4e\	-ste	.	4g\	-te	.	4c/	.	4g\	.	4e/	.	4g/	.
.	.	.	8c\J|	.	8e/J|	.	8g/J|	.	.	.	.	.	.	.	.	.	.	.	.	.	.	.	.	.	.	.	.	.
!	!	!	!	!	!	!	!	!	!	!	!	!	!	!	!	!	!	!	!	!	!LO:LB:g=original	!	!	!	!	!	!	!
=75	=75	=75	=75	=75	=75	=75	=75	=75	=75	=75	=75	=75	=75	=75	=75	=75	=75	=75	=75	=75	=75	=75	=75	=75	=75	=75	=75	=75
4F\	.	.	8c\L 8f|	.	8a/L|	.	8cc\L|	.	(4F\	au-	.	(4f\	au-	.	(4a\	au-	.	(4cc\	au-	.	4f\	.	4a\	.	4a/	.	4cc\	.
.	.	.	8c\ 8f|	.	8a/|	.	8cc\J|	.	.	.	.	.	.	.	.	.	.	.	.	.	.	.	.	.	.	.	.	.
4G\	.	.	8c\ 8e|	.	8g/|	.	8b-\L|	.	8G\)	.	.	8e\)	.	.	8g\)	.	.	8b-\)	.	.	4c/	.	4g\	.	4g/	.	4b-\	.
!	!	!	!	!	!	!	!LO:TUP:a:problem:klamra łukowa	!	!	!	!	!	!	!	!	!	!	!	!	!	!	!	!	!	!	!	!	!
.	.	.	8c\ 8e|	.	8g/|	.	24b-\L	.	8G\	-di	.	8e\	-di	.	8g\	-di	.	24b-\LL	-di	.	.	.	.	.	.	.	.	.
.	.	.	.	.	.	.	24cc\	.	.	.	.	.	.	.	.	.	.	24cc\	.	.	.	.	.	.	.	.	.	.
.	.	.	.	.	.	.	24b-\JJ	.	.	.	.	.	.	.	.	.	.	24b-\JJ	.	.	.	.	.	.	.	.	.	.
4C/	.	.	8c\|	.	8e/|	.	8g/L|	.	4C/	nos	.	4c\	nos	.	4e\	nos	.	4g\	nos	.	4c/	.	4g\	.	4e/	.	4g/	.
.	.	.	8c\J|	.	8e/J|	.	8g/J|	.	.	.	.	.	.	.	.	.	.	.	.	.	.	.	.	.	.	.	.	.
!	!	!	!	!	!	!	!	!	!LO:LB:g=original	!	!	!	!	!	!	!	!	!	!	!	!	!	!	!	!	!	!	!
=76	=76	=76	=76	=76	=76	=76	=76	=76	=76	=76	=76	=76	=76	=76	=76	=76	=76	=76	=76	=76	=76	=76	=76	=76	=76	=76	=76	=76
4F\	.	.	8c\L	.	8c/L	.	(8a/L	.	4F\	Chri-	.	8c\L	X-	.	4c\	X-	.	8a\L	Chri-	.	4f\	.	4f\	.	4f/	.	4a/	.
.	.	.	8c\	.	8A/J	.	8f/J)	.	.	.	.	8A\J	.	.	.	.	.	8f\J	.	.	.	.	.	.	.	.	.	.
4BB-/	.	.	8d\	.	(32d/LLL	.	(32b-/LLL	.	8BB-/	-ste	.	32d\LLL	-ste	.	8d\	-ste	.	32b-\LLL	-ste	.	4r	.	4r	.	4r	.	4r	.
.	.	.	.	.	32c/JJ	.	32a/JJ	.	.	.	.	32c\JJJ	.	.	.	.	.	32a\JJJ	.	.	.	.	.	.	.	.	.	.
.	.	.	.	.	8.B-/J)	.	8.g/J)	.	.	.	.	8.B-\	ex-	.	.	.	.	8.g\	ex-	.	.	.	.	.	.	.	.	.
.	.	.	8d\	.	.	.	.	.	8BB-/	ex-	.	.	.	.	8d\	ex-	.	.	.	.	.	.	.	.	.	.	.	.
4C/	.	.	8c\	.	(32B-/LLL	.	(32g/LLL	.	8C/	-au-	.	32B-\LLL	-au-	.	8c\	-au-	.	32g\LLL	-au-	.	4r	.	4r	.	4r	.	4r	.
.	.	.	.	.	32A/JJ	.	32f/JJ	.	.	.	.	32A\JJJ	.	.	.	.	.	32f\JJJ	.	.	.	.	.	.	.	.	.	.
.	.	.	.	.	8.G/J)	.	8.e/J)	.	.	.	.	8.G/	-di	.	.	.	.	8.e/	-di	.	.	.	.	.	.	.	.	.
.	.	.	8c\J	.	.	.	.	.	8C/	-di	.	.	.	.	8c\	-di	.	.	.	.	.	.	.	.	.	.	.	.
!	!	!	!	!	!	!	!LO:LB:g=original	!	!	!	!	!	!	!	!	!	!	!	!	!	!	!	!	!	!	!	!	!
=77	=77	=77	=77	=77	=77	=77	=77	=77	=77	=77	=77	=77	=77	=77	=77	=77	=77	=77	=77	=77	=77	=77	=77	=77	=77	=77	=77	=77
!	!	!	!	!LO:DY:color=red:t=piano	!	!LO:DY:color=red	!	!LO:DY:color=red	!	!	!LO:DY:a:color=red	!	!	!LO:DY:a:color=red	!	!	!LO:DY:a:color=red	!	!	!LO:DY:a:color=red	!	!LO:DY:color=red	!	!LO:DY:color=red	!	!LO:DY:color=red	!	!LO:DY:color=red
4F\	.	.	8c\L 8f|	p	8a/L|	p	8cc\L|	p	(4F\	Chri-	p	(4f\	Chri-	f	(4a\	Chri-	p	4cc\	Chris-	p	4f\	p	4a\	p	4a/	p	4cc\	p
.	.	.	8c\J 8f|	.	8a/J|	.	8cc\J|	.	.	.	.	.	.	.	.	.	.	.	.	.	.	.	.	.	.	.	.	.
!	!	!	!LO:LB:g=original	!	!LO:LB:g=original	!	!	!	!	!	!	!	!	!	!	!	!	!	!	!	!	!	!	!	!	!	!	!
4G\	.	.	8c\L 8e|	.	8g/L|	.	8b-\L|	.	4G\)	.	.	4e\)	.	.	4g\)	.	.	8b-\L	.	.	4c/	.	4g\	.	4g/	.	4b-\	.
*	*	*	*	*	*	*	*	*	*	*	*	*	*	*	*	*	*	*tuplet	*	*	*	*	*	*	*	*	*	*
!	!	!	!	!	!	!	!LO:TUP:a:problem:klamra łukowa	!	!	!	!	!	!	!	!	!	!	!LO:TUP:a:problem:klamra łukowa	!	!	!	!	!	!	!	!	!	!
.	.	.	8c\ 8e|	.	8g/|	.	24b-\L	.	.	.	.	.	.	.	.	.	.	24b-\L	.	.	.	.	.	.	.	.	.	.
.	.	.	.	.	.	.	24cc\	.	.	.	.	.	.	.	.	.	.	24cc\	.	.	.	.	.	.	.	.	.	.
.	.	.	.	.	.	.	24b-\JJ	.	.	.	.	.	.	.	.	.	.	24b-\JJ	.	.	.	.	.	.	.	.	.	.
4C/	.	.	8c\|	.	8e/|	.	8g/L|	.	4C/	-ste	.	4c\	-ste	.	4e\	-ste	.	4g\	-te	.	4c/	.	4g\	.	4e/	.	4g/	.
.	.	.	8c\J|	.	8e/J|	.	8g/J|	.	.	.	.	.	.	.	.	.	.	.	.	.	.	.	.	.	.	.	.	.
!	!	!	!	!	!	!	!	!	!	!	!	!	!	!	!LO:LB:g=original	!	!	!	!	!	!	!	!	!	!	!	!	!
=78	=78	=78	=78	=78	=78	=78	=78	=78	=78	=78	=78	=78	=78	=78	=78	=78	=78	=78	=78	=78	=78	=78	=78	=78	=78	=78	=78	=78
4F\	.	.	8c\L 8f|	.	8a/L|	.	8cc\L|	.	4F\	au-	.	(4f\	au-	.	(4a\	au-	.	(4cc\	au-	.	4f\	.	4a\	.	4a/	.	4cc\	.
.	.	.	8c\ 8f|	.	8a/|	.	8cc\J|	.	.	.	.	.	.	.	.	.	.	.	.	.	.	.	.	.	.	.	.	.
4G\	.	.	8c\ 8e|	.	8g/|	.	8b-\L|	.	4G\	-di	.	8e\)	.	.	8g\)	.	.	8b-\)	.	.	4c/	.	4g\	.	4g/	.	4b-\	.
*	*	*	*	*	*	*	*	*	*	*	*	*	*	*	*	*	*	*Xtuplet	*	*	*	*	*	*	*	*	*	*
!	!	!	!	!	!	!	!LO:TUP:a:problem:klamra łukowa	!	!	!	!	!	!	!	!	!	!	!	!	!	!	!	!	!	!	!	!	!
.	.	.	8c\ 8e|	.	8g/|	.	24b-\L	.	.	.	.	8e\	di	.	8g\	di	.	24b-\LL	di	.	.	.	.	.	.	.	.	.
.	.	.	.	.	.	.	24cc\	.	.	.	.	.	.	.	.	.	.	24cc\	.	.	.	.	.	.	.	.	.	.
.	.	.	.	.	.	.	24b-\JJ	.	.	.	.	.	.	.	.	.	.	24b-\JJ	.	.	.	.	.	.	.	.	.	.
4C/	.	.	8c\|	.	8e/|	.	8g/L|	.	4C/	nos	.	4c\	-nos	.	4e\	-nos	.	4g\	-nos	.	4c/	.	4g\	.	4e/	.	4g/	.
.	.	.	8c\J|	.	8e/J|	.	8g/J|	.	.	.	.	.	.	.	.	.	.	.	.	.	.	.	.	.	.	.	.	.
!	!	!	!	!	!	!	!	!	!	!	!	!LO:LB:g=original	!	!	!	!	!	!LO:LB:g=original	!	!	!	!	!	!	!	!	!	!
=79	=79	=79	=79	=79	=79	=79	=79	=79	=79	=79	=79	=79	=79	=79	=79	=79	=79	=79	=79	=79	=79	=79	=79	=79	=79	=79	=79	=79
!	!	!	!	!LO:DY:color=red:t=fort	!	!LO:DY:color=red	!	!LO:DY:color=red	!	!	!	!	!	!LO:DY:a:color=red	!	!	!LO:DY:a:color=red	!	!	!LO:DY:a:color=red	!	!	!	!LO:DY:color=red	!	!	!	!
4F\	.	.	8c\L	f	8c/L	f	8a/L	f	4F\	X-	.	8c\L	Chri-	f	4c\	Chri-	f	8a\L	Chri-	f	4f\	.	4f\	f	4f/	.	4a/	.
.	.	.	8c\	.	8A/J	.	8f/J	.	.	.	.	8A\J	.	.	.	.	.	8f\J	.	.	.	.	.	.	.	.	.	.
4BB-/	.	.	8d\	.	(32d/LLL	.	(32b-/LLL	.	8BB-/	-ste	.	32d\LLL	-ste	.	8d\	-ste	.	32b-\LLL	-ste	.	4r	.	4r	.	4r	.	4r	.
.	.	.	.	.	32c/JJ)	.	32a/JJ	.	.	.	.	32c\JJJ	.	.	.	.	.	32a\JJJ	.	.	.	.	.	.	.	.	.	.
.	.	.	.	.	8.B-/J	.	8.g/J)	.	.	.	.	8.B-\	ex-	.	.	.	.	8.g\	ex-	.	.	.	.	.	.	.	.	.
!	!	!	!	!	!	!	!	!	!	!	!LO:DY:a:color=red	!	!	!	!	!	!	!	!	!	!	!	!	!	!	!	!	!
.	.	.	8d\	.	.	.	.	.	8BB-/	ex-	f	.	.	.	8d\	ex-	.	.	.	.	.	.	.	.	.	.	.	.
!	!	!	!	!	!	!	!	!	!	!	!	!	!	!	!	!	!	!	!	!	!	!	!	!	!	!LO:DY:color=red	!	!LO:DY:color=red
4C/	.	.	8c\	.	(32B-/LLL	.	(32g/LLL	.	8C/	-au-	.	32B-\LLL	-au-	.	8c\	-au-	.	32g/LLL	-au-	.	4r	.	4r	.	4e/	f	4g/	f
.	.	.	.	.	32A/JJ)	.	32f/JJ	.	.	.	.	32A\JJJ	.	.	.	.	.	32f/JJJ	.	.	.	.	.	.	.	.	.	.
.	.	.	.	.	8.G/J	.	8.e/J)	.	.	.	.	8.G/	-di	.	.	.	.	8.e/	-di	.	.	.	.	.	.	.	.	.
.	.	.	8c\J	.	.	.	.	.	8C/	-di	.	.	.	.	8c\	-di	.	.	.	.	.	.	.	.	.	.	.	.
=80	=80	=80	=80	=80	=80	=80	=80	=80	=80	=80	=80	=80	=80	=80	=80	=80	=80	=80	=80	=80	=80	=80	=80	=80	=80	=80	=80	=80
!LO:TX:b:i:t=pedale	!	!	!	!LO:DY:color=red	!	!LO:DY:a:color=red	!	!LO:DY:color=red:t=Piano	!	!	!	!	!	!	!	!	!	!	!	!	!LO:TX:a:t=4	!	!LO:TX:a:t=4	!	!	!	!	!
4FF/	.	.	(2c\	p	(2A/	p	(2f/	p	2F\	nos	.	2A\	nos	.	2c\	nos	.	2f/	nos	.	0.r	.	0.r	.	4f/	.	4f/	.
4FF/	.	.	.	.	.	.	.	.	.	.	.	.	.	.	.	.	.	.	.	.	.	.	.	.	4r	.	4r	.
4FF/	.	.	4A/)	.	4c/)	.	4e-X/)	.	4r	.	.	4r	.	.	4r	.	.	4r	.	.	.	.	.	.	4r	.	4r	.
=81	=81	=81	=81	=81	=81	=81	=81	=81	=81	=81	=81	=81	=81	=81	=81	=81	=81	=81	=81	=81	=81	=81	=81	=81	=81	=81	=81	=81
!	!	!	!	!	!	!	!	!	!LO:TX:a:t=3	!	!	!LO:TX:a:t=3	!	!	!LO:TX:a:t=3	!	!	!LO:TX:a:t=3	!	!	!	!	!	!	!LO:TX:a:t=3	!	!LO:TX:a:t=3	!
4FF/	.	.	(2d\	.	(2B-/	.	(2d/	.	1.r	.	.	1.r	.	.	1.r	.	.	1.r	.	.	.	.	.	.	1.r	.	1.r	.
4FF/	.	.	.	.	.	.	.	.	.	.	.	.	.	.	.	.	.	.	.	.	.	.	.	.	.	.	.	.
4FF/	.	.	4A/)	.	4G/)	.	4en/)	.	.	.	.	.	.	.	.	.	.	.	.	.	.	.	.	.	.	.	.	.
=82	=82	=82	=82	=82	=82	=82	=82	=82	=82	=82	=82	=82	=82	=82	=82	=82	=82	=82	=82	=82	=82	=82	=82	=82	=82	=82	=82	=82
!LO:TX:t=P:problem:fragment oznaczony znakiem repetycji	!	!	!	!	!	!	!	!	!	!	!	!	!	!	!	!	!	!	!	!	!	!	!	!	!	!	!	!
4FF/yy	.	.	(2c\	.	(2A/	.	(2f/	.	.	.	.	.	.	.	.	.	.	.	.	.	.	.	.	.	.	.	.	.
4FF/yy	.	.	.	.	.	.	.	.	.	.	.	.	.	.	.	.	.	.	.	.	.	.	.	.	.	.	.	.
4FF/yy	.	.	4A/)	.	4c/)	.	4e-X/)	.	.	.	.	.	.	.	.	.	.	.	.	.	.	.	.	.	.	.	.	.
=83	=83	=83	=83	=83	=83	=83	=83	=83	=83	=83	=83	=83	=83	=83	=83	=83	=83	=83	=83	=83	=83	=83	=83	=83	=83	=83	=83	=83
4FF/yy	.	.	(2d\	.	(2B-/	.	(2d/	.	2.r	.	.	2.r	.	.	2.r	.	.	2.r	.	.	.	.	.	.	2.r	.	2.r	.
4FF/yy	.	.	.	.	.	.	.	.	.	.	.	.	.	.	.	.	.	.	.	.	.	.	.	.	.	.	.	.
4FF/yy	.	.	4A/)	.	4G/)	.	4en/)	.	.	.	.	.	.	.	.	.	.	.	.	.	.	.	.	.	.	.	.	.
=84	=84	=84	=84	=84	=84	=84	=84	=84	=84	=84	=84	=84	=84	=84	=84	=84	=84	=84	=84	=84	=84	=84	=84	=84	=84	=84	=84	=84
!	!	!LO:DY:color=red	!	!LO:DY:color=red	!	!LO:DY:a:color=red	!	!	!	!	!LO:DY:a:color=red	!	!	!LO:DY:a:color=red	!	!	!LO:DY:a:color=red	!	!	!LO:DY:a:color=red	!	!LO:DY:a:color=red	!	!LO:DY:color=red	!	!LO:DY:color=red:t=pp&colon;	!	!LO:DY:color=red:t=pp&colon;
2.FF/	.	p	2.c\	p	(>2.A/	p	8f/L	.	2.F\	Chri-	p	2.c\	Chri-	p	(2f\	Chri-	p	2.a\	Chri-	p	2.F/	p	2.f\	p	(2f/	pp	2.a/	pp
.	.	.	.	.	.	.	8en/	.	.	.	.	.	.	.	.	.	.	.	.	.	.	.	.	.	.	.	.	.
.	.	.	.	.	.	.	8f/	.	.	.	.	.	.	.	.	.	.	.	.	.	.	.	.	.	.	.	.	.
.	.	.	.	.	.	.	8e-X/	.	.	.	.	.	.	.	.	.	.	.	.	.	.	.	.	.	.	.	.	.
.	.	.	.	.	.	.	8d/	.	.	.	.	.	.	.	4e-X\)	.	.	.	.	.	.	.	.	.	4e-X/)	.	.	.
.	.	.	.	.	.	.	8c#X/J	.	.	.	.	.	.	.	.	.	.	.	.	.	.	.	.	.	.	.	.	.
!	!	!	!	!	!	!	!LO:LB:g=original	!	!	!	!	!	!	!	!	!	!	!	!	!	!	!	!	!	!	!	!	!
=85	=85	=85	=85	=85	=85	=85	=85	=85	=85	=85	=85	=85	=85	=85	=85	=85	=85	=85	=85	=85	=85	=85	=85	=85	=85	=85	=85	=85
!	!	!	!	!	!	!	!LO:TX:t=P:problem:mixed beam	!	!	!	!	!	!	!	!	!	!	!	!	!	!	!	!	!	!	!	!	!
2.FF/	.	.	(2d\	.	(>2.B-/)	.	8d/L	.	2.F\	-ste	.	(2d\	-ste	.	(2d\	-ste	.	2.b-\	-ste	.	2.F/	.	2.f\	.	(2d/	.	2.b-/	.
.	.	.	.	.	.	.	8c#X/	.	.	.	.	.	.	.	.	.	.	.	.	.	.	.	.	.	.	.	.	.
.	.	.	.	.	.	.	8d/	.	.	.	.	.	.	.	.	.	.	.	.	.	.	.	.	.	.	.	.	.
.	.	.	.	.	.	.	8b-\	.	.	.	.	.	.	.	.	.	.	.	.	.	.	.	.	.	.	.	.	.
.	.	.	4G\) 4e	.	.	.	8d/	.	.	.	.	4G/)	.	.	4en\)	.	.	.	.	.	.	.	.	.	4en/)	.	.	.
.	.	.	.	.	.	.	8en/J	.	.	.	.	.	.	.	.	.	.	.	.	.	.	.	.	.	.	.	.	.
!	!	!	!	!	!	!	!	!	!	!	!	!	!	!	!	!	!	!	!	!	!	!	!	!	!	!	!LO:LB:g=original	!
=86	=86	=86	=86	=86	=86	=86	=86	=86	=86	=86	=86	=86	=86	=86	=86	=86	=86	=86	=86	=86	=86	=86	=86	=86	=86	=86	=86	=86
2.FF/	.	.	2.c\	.	(>2.A/)	.	(8f/L	.	2.F\	Ex-	.	2.c\	ex-	.	(2f\	ex-	.	2.a\	Ex-	.	2.F/	.	2.f\	.	(2f/	.	2.a/	.
.	.	.	.	.	.	.	8e/	.	.	.	.	.	.	.	.	.	.	.	.	.	.	.	.	.	.	.	.	.
.	.	.	.	.	.	.	8f/	.	.	.	.	.	.	.	.	.	.	.	.	.	.	.	.	.	.	.	.	.
.	.	.	.	.	.	.	8e-X/	.	.	.	.	.	.	.	.	.	.	.	.	.	.	.	.	.	.	.	.	.
.	.	.	.	.	.	.	8d/	.	.	.	.	.	.	.	4e-X\)	.	.	.	.	.	.	.	.	.	4e-X/)	.	.	.
.	.	.	.	.	.	.	8c#X/J)	.	.	.	.	.	.	.	.	.	.	.	.	.	.	.	.	.	.	.	.	.
!	!	!	!	!	!	!	!	!	!LO:LB:g=original	!	!	!	!	!	!	!	!	!	!	!	!	!	!	!	!LO:LB:g=original	!	!	!
=87	=87	=87	=87	=87	=87	=87	=87	=87	=87	=87	=87	=87	=87	=87	=87	=87	=87	=87	=87	=87	=87	=87	=87	=87	=87	=87	=87	=87
!	!	!	!	!	!	!	!LO:TX:t=P:problem:mixed beam	!	!	!	!	!	!	!	!	!	!	!	!	!	!	!	!	!	!	!	!	!
2.FF/	.	.	(2d\	.	2.B-/)	.	8d/L	.	2F\	-au-	.	(2d\	-au-	.	2d\	-au-	.	2b-\	-au-	.	2.F/	.	2.f\	.	2d/	.	2.b-/	.
!	!	!	!	!	!	!	!LO:SIC:v:s=8c#/	!	!	!	!	!	!	!	!	!	!	!	!	!	!	!	!	!	!	!	!	!
.	.	.	.	.	.	.	8c/	.	.	.	.	.	.	.	.	.	.	.	.	.	.	.	.	.	.	.	.	.
.	.	.	.	.	.	.	8d/	.	.	.	.	.	.	.	.	.	.	.	.	.	.	.	.	.	.	.	.	.
.	.	.	.	.	.	.	8b-\	.	.	.	.	.	.	.	.	.	.	.	.	.	.	.	.	.	.	.	.	.
.	.	.	4G\) 4e	.	.	.	8d/	.	4F\	-di	.	4G/)	-di	.	4en\	-di	.	4b-\	-di	.	.	.	.	.	4en/	.	.	.
.	.	.	.	.	.	.	8en/J	.	.	.	.	.	.	.	.	.	.	.	.	.	.	.	.	.	.	.	.	.
!	!	!	!LO:LB:g=original	!	!LO:LB:g=original	!	!	!	!	!	!	!	!	!	!	!	!	!	!	!	!	!	!	!	!	!	!	!
=88	=88	=88	=88	=88	=88	=88	=88	=88	=88	=88	=88	=88	=88	=88	=88	=88	=88	=88	=88	=88	=88	=88	=88	=88	=88	=88	=88	=88
!	!	!	!	!	!	!	!	!LO:HP:t=cres:color=red	!	!	!	!	!	!	!	!	!	!	!	!	!	!LO:DY:a:color=red	!	!LO:DY:color=red	!	!	!	!
4FF/	.	.	4c/	.	4A/	.	8f/L	<	4F\	nos	.	4c\	nos	.	4f\	nos	.	4a\	nos	.	4F/	pp	4f\	pp	4f/	.	4a/	.
.	.	.	.	.	.	.	8e/	.	.	.	.	.	.	.	.	.	.	.	.	.	.	.	.	.	.	.	.	.
4r	.	.	4r	.	4r	.	8f/	.	4r	.	.	4r	.	.	4r	.	.	4r	.	.	4r	.	4r	.	4r	.	4r	.
.	.	.	.	.	.	.	8g/	.	.	.	.	.	.	.	.	.	.	.	.	.	.	.	.	.	.	.	.	.
!	!	!	!	!LO:HP:t=cres:color=red	!	!	!	!	!	!	!	!	!	!	!	!	!	!	!	!	!	!	!	!	!	!	!	!
4CC/	.	.	4G/	<	4B-/	.	8e/	.	4r	.	.	4r	.	.	4r	.	.	4r	.	.	4c/	.	4c/	.	4e/	.	4b-/	.
.	.	.	.	.	.	.	8cn/J	.	.	.	.	.	.	.	.	.	.	.	.	.	.	.	.	.	.	.	.	.
=89	=89	=89	=89	=89	=89	=89	=89	=89	=89	=89	=89	=89	=89	=89	=89	=89	=89	=89	=89	=89	=89	=89	=89	=89	=89	=89	=89	=89
!	!	!	!	!	!	!LO:HP:t=cres:color=red	!	!	!	!	!	!	!	!	!	!	!	!	!	!	!	!	!	!	!	!	!	!
4FF/	.	.	4c/	.	4A/	<	8f/L	.	4r	.	.	4r	.	.	4r	.	.	4r	.	.	4F/	.	4f\	.	4f/	.	4a/	.
.	.	.	.	.	.	.	8e/	.	.	.	.	.	.	.	.	.	.	.	.	.	.	.	.	.	.	.	.	.
!	!	!	!	!	!	!	!LO:TX:b:i:t=il:color=red	!	!	!	!	!	!	!	!	!	!	!	!	!	!	!	!	!	!	!	!	!
4r	.	.	4r	.	4r	.	8f/	.	4r	.	.	4r	.	.	4r	.	.	4r	.	.	4r	.	4r	.	4r	.	4r	.
.	.	.	.	.	.	.	8g/	.	.	.	.	.	.	.	.	.	.	.	.	.	.	.	.	.	.	.	.	.
!	!	!	!	!	!	!	!	!	!	!	!LO:DY:a:color=red	!	!	!LO:DY:a:color=red	!	!	!LO:DY:a:color=red	!	!	!LO:DY:a:color=red	!	!	!	!	!	!	!	!
4CC/	.	.	4G/	.	4B-/	.	8e/	.	4C/	Ex-	pp	4c\	Ex-	pp	4g\	ex-	pp	4b-\	Ex-	pp	4c/	.	4c/	.	4e/	.	4b-/	.
.	.	.	.	.	.	.	8c/J	.	.	.	.	.	.	.	.	.	.	.	.	.	.	.	.	.	.	.	.	.
!	!	!	!	!	!	!	!	!	!	!	!	!	!	!	!LO:LB:g=original	!	!	!	!	!	!LO:LB:g=original	!	!LO:LB:g=original	!	!	!	!	!
=90	=90	=90	=90	=90	=90	=90	=90	=90	=90	=90	=90	=90	=90	=90	=90	=90	=90	=90	=90	=90	=90	=90	=90	=90	=90	=90	=90	=90
!	!	!	!	!	!	!	!	!	!	!	!	!	!	!	!	!	!	!	!	!	!	!LO:DY:color=red	!	!	!	!	!	!
4FF/	.	.	4c/	.	4A/	.	4f/	.	4F\	-au-	.	4c\	-au-	.	4f\	-au-	.	4a\	-au-	.	4F/	ppp	4f\	.	4f/	.	4a/	.
4r	.	.	4r	.	4r	.	4r	.	4r	.	.	4r	.	.	4r	.	.	4r	.	.	4r	.	4r	.	4r	.	4r	.
!	!	!LO:DY:color=red	!	!LO:DY:color=red	!	!LO:DY:color=red	!	!LO:DY:color=red:t=pp.	!	!	!	!	!	!	!	!	!	!	!	!	!	!	!	!LO:DY:color=red:t=ppp.	!	!LO:DY:color=red:t=ppp&colon;	!	!LO:DY:color=red:t=ppp&colon;
4FF/	.	pp	4c/	pp	4A/	pp	4f/	pp	4F\	-di	.	4c\	-di	.	4f\	-di	.	4a\	-di	.	4F/	.	4c/	ppp	4f/	ppp	4a/	ppp
=91	=91	=91	=91	=91	=91	=91	=91	=91	=91	=91	=91	=91	=91	=91	=91	=91	=91	=91	=91	=91	=91	=91	=91	=91	=91	=91	=91	=91
2FF/	.	.	2c/	.	2A/	.	2f/	.	2F\	nos	.	2c\	nos	.	2f\	nos	.	2a\	nos	.	2F/	.	2c/	.	2f/	.	2a/	.
!	!	!	!	!	!LO:TX:b:i:t=Il Fine:color=red:rj	!	!LO:TX:b:i:t=Finis.	!	!	!	!	!	!	!	!	!	!	!	!	!	!	!	!LO:TX:b:i:t=Il Fine:color=red:rj	!	!	!	!	!
4r	.	.	4r	.	4r	.	4r	.	4r	.	.	4r	.	.	4r	.	.	4r	.	.	4r	.	4r	.	4r	.	4r	.
==	==	==	==	==	==	==	==	==	==	==	==	==	==	==	==	==	==	==	==	==	==	==	==	==	==	==	==	==
*-	*-	*-	*-	*-	*-	*-	*-	*-	*-	*-	*-	*-	*-	*-	*-	*-	*-	*-	*-	*-	*-	*-	*-	*-	*-	*-	*-	*-
!!!system-decoration: [(g1)][(g2)][(g3)][(g4)]<s12>
!!!RDF**kern: > = above
!!!RDF**kern: < = below
!!!RDF**kern: | = vertical stroke
!!!ENC: Katarzyna Serwa
!!!END: 2020-11-06
!!!ENC: Andrzej Kubiczek
!!!END: 2022-05-02
!!!YEC: Copyright 2022 Narodowy Instytut Fryderyka Chopina (https://polishscores.org)
!!!YEM: License CC-BY-4.0 (https://creativecommons.org/licenses/by/4.0)
